!!!!SEGMENT: pl-cz--iii-446--001_maader-ludwik--requiem-in-es-requiem.krn
!!!cenid: 17xx:970
!!!COM: Maader, Ludwik
!!!COM-rismid: pe30020328
!!!CDT: <1794->1798
!!!CNT:
!!!OPR: Requiem in Es
!!!OTL: Requiem
!!!OMV: 001
!!!PDT:
!!!AGN: Sacred; Requiem
!!!SMS-siglum: PL-CZ
!!!SMS-shelfmark: III-446
!!!SMS-shelfwork: 001-001 M
!!!SMS-variant:
!!!SMS-altvar:
!!!NIFC-rismid: 300000767
!!!URL-scan: http://repozytorium.nifc.pl/skany/pl-cz-nut--iii-446
!!!ONB-nifc: UWAGA: części Requiem: Requiem, Dies irae, Domine Jesu Christe, Sanctus, Benedictus
!!!key: E-
**kern	**dynam	**kern	**dynam	**kern	**text	**text	**kern	**text	**kern	**text	**kern	**text	**text	**kern	**fba	**dynam	**kern	**kern	**kern	**kern
*part11	*part11	*part10	*part10	*part9	*part9	*part9	*part8	*part8	*part7	*part7	*part6	*part6	*part6	*part5	*part5	*part5	*part4	*part3	*part2	*part1
*staff11	*	*staff10	*	*staff9	*staff9	*staff9	*staff8	*staff8	*staff7	*staff7	*staff6	*staff6	*staff6	*staff5	*	*	*staff4	*staff3	*staff2	*staff1
*Ivioln	*	*Ivioln	*	*Iempty	*	*	*Itenor	*	*Ialto	*	*Ivox	*	*	*Iorgan	*	*	*Iempty	*Icor	*Iclars	*Iclars
*I"Violino ſecudno.	*	*I"Violino Primo	*	*I"Baſso.	*	*	*I"Tenore	*	*I"Alto	*	*I"Canto	*	*	*I"Organo	*	*	*I"Corno ſecondo in Dis	*I"Corno Primo in Eb.	*I"Clarinetto ſecondo obligato in Eb.	*I"Clarinetto primo obligato in Eb.
*I'vl 2	*	*I'vl 1	*	*I'B	*	*	*I'T	*	*I'A	*	*I'S	*	*	*I'org	*	*	*I'cor 2 in Es	*I'cor 1 in Es	*I'cl 2 in Es	*I'cl 1 in Es
*ICstr	*	*ICstr	*	*ICvox	*	*	*ICvox	*	*ICvox	*	*ICvox	*	*	*ICklav	*	*	*ICbras	*ICbras	*ICww	*ICww
*IG	*	*	*	*IGcoro	*	*	*IGcoro	*	*IGcoro	*	*IGcoro	*	*	*	*	*	*	*	*	*
*clefG2	*	*clefG2	*	*clefF4	*	*	*clefC4	*	*clefC2	*	*clefC1	*	*	*clefF4	*	*	*clefG2	*clefG2	*clefG2	*clefG2
*	*	*	*	*	*	*	*	*	*	*	*	*	*	*	*	*	*ITrd5c9	*ITrd5c9	*ITrd-2c-3	*ITrd-2c-3
*k[b-e-a-]	*	*k[b-e-a-]	*	*k[b-e-a-]	*	*	*k[b-e-a-]	*	*k[b-e-a-]	*	*k[b-e-a-]	*	*	*k[b-e-a-]	*	*	*k[b-e-a-]	*k[b-e-a-d-g-c-]	*k[b-e-a-]	*k[b-e-a-]
*E-:	*	*E-:	*	*E-:	*	*	*E-:	*	*E-:	*	*E-:	*	*	*E-:	*	*	*E-:	*E-:	*E-:	*E-:
*M4/4	*	*M4/4	*	*M4/4	*	*	*M4/4	*	*M4/4	*	*M4/4	*	*	*M4/4	*	*	*M4/4	*M4/4	*M4/4	*M4/4
*met(c)	*	*met(c)	*	*met(c)	*	*	*met(c)	*	*met(c)	*	*met(c)	*	*	*met(c)	*	*	*met(c)	*met(c)	*met(c)	*met(c)
=1	=1	=1	=1	=1	=1	=1	=1	=1	=1	=1	=1	=1	=1	=1	=1	=1	=1	=1	=1	=1
*tremolo	*	*	*	*	*	*	*	*	*	*	*	*	*	*	*	*	*	*	*	*
*	*	*	*	*	*	*	*	*	*	*	*	*	*	*tremolo	*	*	*	*	*	*
*2\right	*	*2\right	*	*2\right	*	*	*2\right	*	*2\right	*	*2\right	*	*	*2\right	*	*	*2\right	*2\right	*2\right	*2\right
*4\right	*	*4\right	*	*4\right	*	*	*4\right	*	*4\right	*	*4\right	*	*	*4\right	*	*	*4\right	*4\right	*4\right	*4\right
*8\right	*	*8\right	*	*8\right	*	*	*8\right	*	*8\right	*	*8\right	*	*	*8\right	*	*	*8\right	*8\right	*8\right	*8\right
!	!	!	!	!	!	!	!	!	!	!	!	!	!	!	!	!	!	!	!	!LO:TX:t=P:problem:global: caudy z prawej strony przy półnutach
!	!	!	!	!	!	!	!	!	!	!	!	!	!	!	!	!	!	!LO:TX:t=P:problem:prawdopodobnie błędnie zaznaczono znaki przykluczowe "b, es, as", przez co utwór dysonansuje	!	!LO:TX:a:B:t=Adagio
!	!	!LO:TX:a:B:t=Adagio non molto	!	!LO:TX:a:B:t=Adagio	!	!	!LO:TX:a:B:t=Adagio	!	!LO:TX:a:B:t=Adagio	!	!LO:TX:a:B:t=Adagio	!	!	!LO:TX:a:B:t=Adagio	!	!	!LO:TX:a:B:t=Adagio	!LO:TX:a:B:t=Adagio	!LO:TX:a:B:t=Adagio	!
!	!LO:DY:b:t=po	!	!LO:DY:b:t=piano	!	!	!	!	!	!	!	!	!	!	!	!	!LO:DY:b:t=po.	!	!	!	!
8G/ 8e-L	p	4b-\	p	1r	.	.	1r	.	1r	.	1r	.	.	8E-\L	5 3	p	1r	1r	1r	1r
8G/ 8e-	.	.	.	.	.	.	.	.	.	.	.	.	.	8E-\	.	.	.	.	.	.
8G/ 8e-	.	16g/LL	.	.	.	.	.	.	.	.	.	.	.	8E-\	.	.	.	.	.	.
.	.	16b-/	.	.	.	.	.	.	.	.	.	.	.	.	.	.	.	.	.	.
8G/ 8e-J	.	16ee-/	.	.	.	.	.	.	.	.	.	.	.	8E-\J	.	.	.	.	.	.
.	.	16dd-X/JJ	.	.	.	.	.	.	.	.	.	.	.	.	.	.	.	.	.	.
8A-/ 8e-L	.	16dd-\LL	.	.	.	.	.	.	.	.	.	.	.	8E-\L	6 4	.	.	.	.	.
.	.	16cc\	.	.	.	.	.	.	.	.	.	.	.	.	.	.	.	.	.	.
8A-/ 8e-	.	16bn\	.	.	.	.	.	.	.	.	.	.	.	8E-\	.	.	.	.	.	.
.	.	16cc\JJ	.	.	.	.	.	.	.	.	.	.	.	.	.	.	.	.	.	.
8A-/ 8e-	.	8.cc\L	.	.	.	.	.	.	.	.	.	.	.	8E-\	.	.	.	.	.	.
8A-/ 8e-J	.	.	.	.	.	.	.	.	.	.	.	.	.	8E-\J	.	.	.	.	.	.
.	.	16ee-\Jk	.	.	.	.	.	.	.	.	.	.	.	.	.	.	.	.	.	.
=2	=2	=2	=2	=2	=2	=2	=2	=2	=2	=2	=2	=2	=2	=2	=2	=2	=2	=2	=2	=2
.	.	8qqee-/	.	.	.	.	.	.	.	.	.	.	.	.	.	.	.	.	.	.
8G\ 8a-L	.	8ddn\L	.	1r	.	.	1r	.	1r	.	1r	.	.	8E-\L	7 4 2	.	1r	1r	1r	1r
8G\ 8a-	.	(8.dd\J	.	.	.	.	.	.	.	.	.	.	.	8E-\	.	.	.	.	.	.
8G\ 8a-	.	.	.	.	.	.	.	.	.	.	.	.	.	8E-\	.	.	.	.	.	.
.	.	16ff|\LL)	.	.	.	.	.	.	.	.	.	.	.	.	.	.	.	.	.	.
8G\ 8a-J	.	16b-|\	.	.	.	.	.	.	.	.	.	.	.	8E-\J	.	.	.	.	.	.
.	.	16dd|\JJ	.	.	.	.	.	.	.	.	.	.	.	.	.	.	.	.	.	.
8G\ 8gL	.	(16ff|\LL	.	.	.	.	.	.	.	.	.	.	.	8E-\L	8 5 3	.	.	.	.	.
.	.	16ee-\	.	.	.	.	.	.	.	.	.	.	.	.	.	.	.	.	.	.
8G\ 8g	.	16dd\	.	.	.	.	.	.	.	.	.	.	.	8E-\	.	.	.	.	.	.
.	.	16ee-\JJ)	.	.	.	.	.	.	.	.	.	.	.	.	.	.	.	.	.	.
8G\ 8g	.	8.ee-\L	.	.	.	.	.	.	.	.	.	.	.	8E-\	.	.	.	.	.	.
8G\ 8gJ	.	.	.	.	.	.	.	.	.	.	.	.	.	8E-\J	.	.	.	.	.	.
.	.	16gg\Jk	.	.	.	.	.	.	.	.	.	.	.	.	.	.	.	.	.	.
=3	=3	=3	=3	=3	=3	=3	=3	=3	=3	=3	=3	=3	=3	=3	=3	=3	=3	=3	=3	=3
*^	*	*	*	*	*	*	*	*	*	*	*	*	*	*	*	*	*	*	*	*
8b-\L	8d/L	.	(16gg\LL	.	1r	.	.	1r	.	1r	.	1r	.	.	8D\L	6	.	1r	1r	1r	1r
.	.	.	16ff\	.	.	.	.	.	.	.	.	.	.	.	.	.	.	.	.	.	.
8b-\	8d/	.	16een\	.	.	.	.	.	.	.	.	.	.	.	8D\	.	.	.	.	.	.
.	.	.	16ff\JJ)	.	.	.	.	.	.	.	.	.	.	.	.	.	.	.	.	.	.
8b-\	8d/	.	8.bb-\L	.	.	.	.	.	.	.	.	.	.	.	8D\	.	.	.	.	.	.
8b-\J	8d/J	.	.	.	.	.	.	.	.	.	.	.	.	.	8D\J	.	.	.	.	.	.
.	.	.	16aa-\Jk	.	.	.	.	.	.	.	.	.	.	.	.	.	.	.	.	.	.
8b-\L	8e-/L	.	(16aa-\LL	.	.	.	.	.	.	.	.	.	.	.	8E-\L	.	.	.	.	.	.
.	.	.	16gg\	.	.	.	.	.	.	.	.	.	.	.	.	.	.	.	.	.	.
8b-\	8e-/	.	16ff\	.	.	.	.	.	.	.	.	.	.	.	8E-\	.	.	.	.	.	.
.	.	.	16gg\JJ)	.	.	.	.	.	.	.	.	.	.	.	.	.	.	.	.	.	.
8b-\	8e-/	.	8.bb-\L	.	.	.	.	.	.	.	.	.	.	.	8E-\	.	.	.	.	.	.
8b-\J	8e-/J	.	.	.	.	.	.	.	.	.	.	.	.	.	8G\J	6	.	.	.	.	.
.	.	.	16ee\Jk	.	.	.	.	.	.	.	.	.	.	.	.	.	.	.	.	.	.
!	!	!	!LO:LB:g=original	!	!	!	!	!	!	!	!	!	!	!	!	!	!	!	!	!	!
*v	*v	*	*	*	*	*	*	*	*	*	*	*	*	*	*	*	*	*	*	*	*
=4	=4	=4	=4	=4	=4	=4	=4	=4	=4	=4	=4	=4	=4	=4	=4	=4	=4	=4	=4	=4
16c|/LL	.	(16cc\LL	.	1r	.	.	1r	.	1r	.	1r	.	.	8A-\	5	.	1r	1r	1r	1r
16c|/	.	16cc\)	.	.	.	.	.	.	.	.	.	.	.	.	.	.	.	.	.	.
(16a-/	.	(16aa-\	.	.	.	.	.	.	.	.	.	.	.	8r	.	.	.	.	.	.
16g/JJ)	.	16gg\JJ)	.	.	.	.	.	.	.	.	.	.	.	.	.	.	.	.	.	.
16f|/LL	.	(16ff\LL	.	.	.	.	.	.	.	.	.	.	.	8r	.	.	.	.	.	.
16f|/	.	16ff\)	.	.	.	.	.	.	.	.	.	.	.	.	.	.	.	.	.	.
(16g/	.	(16gg\	.	.	.	.	.	.	.	.	.	.	.	8An\	7 5	.	.	.	.	.
16e-/JJ)	.	16ee-\JJ)	.	.	.	.	.	.	.	.	.	.	.	.	.	.	.	.	.	.
!	!	!	!	!	!	!	!	!	!	!	!	!	!	!LO:TX:t=P:problem:mixed beam	!	!	!	!	!	!
(16d/LL	.	(16dd\LL	.	.	.	.	.	.	.	.	.	.	.	8B-\L	5 3	.	.	.	.	.
16f/)	.	16ff\)	.	.	.	.	.	.	.	.	.	.	.	.	.	.	.	.	.	.
16B-'/	.	16b-|\	.	.	.	.	.	.	.	.	.	.	.	8BB-/J	.	.	.	.	.	.
16B-'/JJ	.	16b-|\JJ	.	.	.	.	.	.	.	.	.	.	.	.	.	.	.	.	.	.
8d|/	.	8b-\	.	.	.	.	.	.	.	.	.	.	.	16B-|\LL	.	.	.	.	.	.
.	.	.	.	.	.	.	.	.	.	.	.	.	.	16A-X|\	.	.	.	.	.	.
8r	.	8r	.	.	.	.	.	.	.	.	.	.	.	16G|\	.	.	.	.	.	.
.	.	.	.	.	.	.	.	.	.	.	.	.	.	16F|\JJ	.	.	.	.	.	.
=5	=5	=5	=5	=5	=5	=5	=5	=5	=5	=5	=5	=5	=5	=5	=5	=5	=5	=5	=5	=5
!	!	!LO:TX:a:i:t=T&colon;	!	!	!	!	!	!	!	!	!	!	!	!	!	!	!	!	!	!
!	!	!	!LO:DY:b:t=for	!	!	!	!	!	!	!	!	!	!	!	!	!	!	!	!	!
8G/ 8e-L	.	4b-\	f	4.E-\	Re-	.	4.e-\	Re-	4.b-\	Re-	4.b-\	Re-	.	8E-\L	5 3	.	4E-/	4e-\	4cc\	4ee-\
8G/ 8e-	.	.	.	.	.	.	.	.	.	.	.	.	.	8E-\	.	.	.	.	.	.
8G/ 8e-	.	16g\LL	.	.	.	.	.	.	.	.	.	.	.	8E-\	.	.	4E-/	4e-\	4cc\	4ee-\
.	.	16b-\	.	.	.	.	.	.	.	.	.	.	.	.	.	.	.	.	.	.
8G/ 8e-J	.	16ee-\	.	8E-\	-qui-	.	8e-\	-qui-	8b-\	-qui-	8b-\	-qui-	.	8E-\J	.	.	.	.	.	.
.	.	16dd-X\JJ	.	.	.	.	.	.	.	.	.	.	.	.	.	.	.	.	.	.
8A-/ 8e-L	.	16dd-\LL	.	4E-\	-em	.	4e-\	-em	4cc\	-em	4cc\	-em	.	8E-\L	6 4	.	4E-/	4e-\	4dd\	4ff\
!LO:LB:g=original	!	!	!	!	!	!	!	!	!	!	!	!	!	!	!	!	!	!	!	!
.	.	16cc\	.	.	.	.	.	.	.	.	.	.	.	.	.	.	.	.	.	.
8A-/ 8e-	.	16bn\	.	.	.	.	.	.	.	.	.	.	.	8E-\	.	.	.	.	.	.
.	.	16cc\JJ	.	.	.	.	.	.	.	.	.	.	.	.	.	.	.	.	.	.
8A-/ 8e-	.	8.cc\L	.	4r	.	.	4r	.	4r	.	4r	.	.	8E-\	.	.	4r	4r	4r	4r
8A-/ 8e-J	.	.	.	.	.	.	.	.	.	.	.	.	.	8E-\J	.	.	.	.	.	.
!	!	!	!	!	!	!	!	!	!	!	!	!	!	!LO:LB:g=original	!	!	!	!	!	!
.	.	16ee-\Jk	.	.	.	.	.	.	.	.	.	.	.	.	.	.	.	.	.	.
=6	=6	=6	=6	=6	=6	=6	=6	=6	=6	=6	=6	=6	=6	=6	=6	=6	=6	=6	=6	=6
.	.	8qqee-/	.	.	.	.	.	.	.	.	.	.	.	.	.	.	.	.	.	.
*^	*	*	*	*	*	*	*	*	*	*	*	*	*	*	*	*	*	*	*	*
8a-\L	8G/L	.	8ddn\L	.	4.BB-/	Re-	.	4.A-\	Re-	4.a-\	Re-	4.dd\	Re-	.	8E-\L	7 2	.	4B-/	4f\	4b-/	4gg\
8a-\	8G/	.	8.dd\J	.	.	.	.	.	.	.	.	.	.	.	8E-\	.	.	.	.	.	.
8a-\	8G/	.	.	.	.	.	.	.	.	.	.	.	.	.	8E-\	.	.	4B-/	4f\	4b-/	4gg\
.	.	.	16ff\LL	.	.	.	.	.	.	.	.	.	.	.	.	.	.	.	.	.	.
8a-\J	8G/J	.	16b-\	.	8BB-/	-qui-	.	8A-\	-qui-	8a-\	-qui-	8dd\	-qui-	.	8E-\J	.	.	.	.	.	.
.	.	.	16dd\JJ	.	.	.	.	.	.	.	.	.	.	.	.	.	.	.	.	.	.
8g\L	8G/L	.	(16ff\LL	.	4E-\	-em	.	4G\	-em	4b-\	-em	4ee-\	-em	.	8E-\L	8 3	.	4e-\	4g-\	4cc/	4aa-\
.	.	.	16ee-\	.	.	.	.	.	.	.	.	.	.	.	.	.	.	.	.	.	.
8g\	8G/	.	16dd\	.	.	.	.	.	.	.	.	.	.	.	8E-\	.	.	.	.	.	.
.	.	.	16ee-\JJ)	.	.	.	.	.	.	.	.	.	.	.	.	.	.	.	.	.	.
8g\	8G/	.	8.ee-|\L	.	4r	.	.	4r	.	4r	.	4r	.	.	8E-\	.	.	4r	4r	4r	4r
8g\J	8G/J	.	.	.	.	.	.	.	.	.	.	.	.	.	8E-\J	.	.	.	.	.	.
.	.	.	16gg|\Jk	.	.	.	.	.	.	.	.	.	.	.	.	.	.	.	.	.	.
=7	=7	=7	=7	=7	=7	=7	=7	=7	=7	=7	=7	=7	=7	=7	=7	=7	=7	=7	=7	=7	=7
8b-\L	8d/L	.	(16gg\LL	.	2D\	a-	.	1B-	a-	1dd	ae-	2ff\	a-	.	8D\L	6	.	2B-/	2f\	8r	8r
.	.	.	16ff\	.	.	.	.	.	.	.	.	.	.	.	.	.	.	.	.	.	.
8b-\	8d/	.	16een\	.	.	.	.	.	.	.	.	.	.	.	8D\	.	.	.	.	8ee-\	8bb-\
.	.	.	16ff\JJ)	.	.	.	.	.	.	.	.	.	.	.	.	.	.	.	.	.	.
8b-\	8d/	.	8.bb-\L	.	.	.	.	.	.	.	.	.	.	.	8D\	.	.	.	.	4ee-\	4bb-\
8b-\J	8d/J	.	.	.	.	.	.	.	.	.	.	.	.	.	8D\J	.	.	.	.	.	.
.	.	.	16aa-\Jk	.	.	.	.	.	.	.	.	.	.	.	.	.	.	.	.	.	.
8b-\L	8e-/L	.	16aa-\LL	.	2E-\	-e-	.	.	.	.	.	2gg\	-e-	.	8E-\L	.	.	2e-\	2g-\	8r	8r
.	.	.	16gg\	.	.	.	.	.	.	.	.	.	.	.	.	.	.	.	.	.	.
8b-\	8e-/	.	16ff\	.	.	.	.	.	.	.	.	.	.	.	8E-\	.	.	.	.	8ee-\	8ccc\
.	.	.	16gg\JJ	.	.	.	.	.	.	.	.	.	.	.	.	.	.	.	.	.	.
8b-\	8e-/	.	8.bb-\L	.	.	.	.	.	.	.	.	.	.	.	8E-\	.	.	.	.	4ee-\	4ccc\
8b-\J	8e-/J	.	.	.	.	.	.	.	.	.	.	.	.	.	8E-\J	.	.	.	.	.	.
.	.	.	16ee\Jk	.	.	.	.	.	.	.	.	.	.	.	.	.	.	.	.	.	.
*v	*v	*	*	*	*	*	*	*	*	*	*	*	*	*	*	*	*	*	*	*	*
=8	=8	=8	=8	=8	=8	=8	=8	=8	=8	=8	=8	=8	=8	=8	=8	=8	=8	=8	=8	=8
8.e-/L	.	16cc\LL	.	4A-\	-ter-	.	4c\	-e-	8.g\L	-ter-	8.cc\L	-ter-	.	4A-\	6 5	.	4r	4r	8r	8r
.	.	16ccM\	.	.	.	.	.	.	.	.	.	.	.	.	.	.	.	.	.	.
.	.	16aa-\	.	.	.	.	.	.	.	.	.	.	.	.	.	.	.	.	16r	16r
16a-/Jk	.	16ff\JJ	.	.	.	.	.	.	16cc\Jk	.	16ff\Jk	.	.	.	.	.	.	.	16dd\	16bb-\
!	!	!	!	!LO:TX:t=P:problem:mixed beam	!	!	!	!	!	!	!	!	!	!LO:TX:t=P:problem:mixed beam	!	!	!	!	!LO:TX:a:i:t=ſolo	!LO:TX:a:i:t=ſolo
.	.	8qqff/	.	.	.	.	.	.	.	.	.	.	.	.	.	.	.	.	.	.
8g/L	.	8ee-\L	.	8B-\L	.	.	4B-\	-ter-	8b-\L	.	8ee-\L	.	.	8B-\L	6 4	.	8e-\L	8g-\L	8cc/L	8aa-\L
.	.	8qqee-/	.	.	.	.	.	.	.	.	.	.	.	.	.	.	.	.	.	.
8f/J	.	8dd\J	.	8BB-/J	.	.	.	.	8a-\J	.	8dd\J	.	.	8BB-/J	5 3	.	8B-\J	8f\J	8b-/J	8gg\J
!	!	!LO:LB:g=original	!	!	!	!	!	!	!	!	!	!	!	!	!	!LO:DY:b:t=pia.	!	!	!	!
8g/L	.	8ee-\L	.	4E-\	-nam	.	8B-\	-nam	8b-\	-nam	8ee-\	-nam	.	8E-|\L	.	p	4G/	4e-\	16cc\LL	16aa-\LL
.	.	.	.	.	.	.	.	.	.	.	.	.	.	.	.	.	.	.	16aa-\J	16ccc\J
8e-/J	.	8g/J	.	.	.	.	8rF	.	8r	.	8r	.	.	8E-|\	.	.	.	.	8aa-\J	8ccc\J
!	!LO:DY:b:t=pia.	!	!LO:DY:b:t=pia.	!	!	!	!LO:TX:a:i:t=ſolo	!	!LO:TX:a:i:t=ſolo	!	!	!	!	!	!	!	!	!	!	!
16e-/LL	p	16g/LL	p	4r	.	.	16e-\LL	do-	16b-\LL	do-	4r	.	.	8E-|\	.	.	4r	4r	16aa-\LL	16ccc\LL
16d/	.	16f/	.	.	.	.	16d\JJ	.	16a-\JJ	.	.	.	.	.	.	.	.	.	16gg\	16bb-\
16e-/	.	16g/	.	.	.	.	16e-\LL	-na	16b-\LL	-na	.	.	.	8E-|\J	.	.	.	.	16aa-\	16ccc\
16f/JJ	.	16a-/JJ	.	.	.	.	16f\JJ	.	16cc\JJ	.	.	.	.	.	.	.	.	.	16bb-\JJ	16ddd\JJ
!	!	!	!	!	!	!	!LO:LB:g=original	!	!	!	!	!	!	!	!	!	!	!	!	!
=9	=9	=9	=9	=9	=9	=9	=9	=9	=9	=9	=9	=9	=9	=9	=9	=9	=9	=9	=9	=9
!	!	!	!	!	!	!	!	!	!	!	!	!	!	!LO:TX:b:i:t=Violone	!	!	!	!	!	!
8.g/L	.	8.b-\L	.	1r	.	.	8.g\L	e-	8.dd\L	e-	1r	.	.	8E-|\L	.	.	1r	1r	8.ccc\L	8.eee-\L
.	.	.	.	.	.	.	.	.	.	.	.	.	.	8E-|\	.	.	.	.	.	.
32a-/LL	.	32cc\LL	.	.	.	.	32a-\LL	.	32ee-\LL	.	.	.	.	.	.	.	.	.	32ddd\LL	32fff\LL
32g/JJJ	.	32b-\JJJ	.	.	.	.	32g\JJJ	.	32dd\JJJ	.	.	.	.	.	.	.	.	.	32ccc\JJJ	32eee-\JJJ
8f/L	.	8a-/L	.	.	.	.	8f\L	.	8cc\L	.	.	.	.	8E-|\	.	.	.	.	8bb-\L	8ddd\L
8e-/J	.	8g/J	.	.	.	.	8e-\J	.	8b-\J	.	.	.	.	8E-|\J	.	.	.	.	8aa-\J	8ccc\J
!	!	!	!	!	!	!	!	!	!LO:LB:g=original	!	!	!	!	!	!	!	!	!	!LO:LB:g=original	!LO:LB:g=original
8qqe-/	.	8qqg/	.	.	.	.	.	.	.	.	.	.	.	.	.	.	.	.	8qqaa-/	8qqbb-/
8d/L	.	8f/L	.	.	.	.	8d\	-is	8a-\	-is	.	.	.	8BB-|/L	.	.	.	.	8gg\L	8bb-\L
8d/J	.	8f/J	.	.	.	.	8r	.	8r	.	.	.	.	8BB-|/	.	.	.	.	8gg\J	8bb-\J
16d/LL	.	16f/LL	.	.	.	.	16d\LL	do-	16a-\LL	do-	.	.	.	8BB-|/	.	.	.	.	16gg\LL	16bb-\LL
16c/	.	16e-/	.	.	.	.	16c\JJ	.	16g\JJ	.	.	.	.	.	.	.	.	.	16ff\	16aa-\
16d/	.	16f/	.	.	.	.	16d\LL	-na	16a-\LL	-na	.	.	.	8BB-|/J	.	.	.	.	16gg\	16bb-\
16e-/JJ	.	16g/JJ	.	.	.	.	16e-\JJ	.	16b-\JJ	.	.	.	.	.	.	.	.	.	16aa-\JJ	16ccc\JJ
=10	=10	=10	=10	=10	=10	=10	=10	=10	=10	=10	=10	=10	=10	=10	=10	=10	=10	=10	=10	=10
8.f/L	.	8.a-/L	.	1r	.	.	8.f\L	do-	8.cc\L	do-	1r	.	.	8BB-/L	.	.	1r	1r	8.bb-\L	8.ddd\L
.	.	.	.	.	.	.	.	.	.	.	.	.	.	8BB-/	.	.	.	.	.	.
32g/LL	.	32b-/LL	.	.	.	.	32g\LL	.	32dd\LL	.	.	.	.	.	.	.	.	.	32ccc\LL	32eee-\LL
32f/JJJ	.	32a-/JJJ	.	.	.	.	32f\JJJ	.	32cc\JJJ	.	.	.	.	.	.	.	.	.	32bb-\JJJ	32ddd\JJJ
8e-/L	.	8g/L	.	.	.	.	8e-\	.	8b-\L	-na	.	.	.	8BB-/	.	.	.	.	8aa-\L	8ccc\L
8d/J	.	8f/J	.	.	.	.	8d\	-na	8a-\J	.	.	.	.	8BB-/J	.	.	.	.	8gg\J	8bb-\J
16e-/LL	.	16g/LL	.	.	.	.	16e-\LL	e-	16b-\LL	e-	.	.	.	8E-\L	.	.	.	.	16aa-\LL	16ccc\LL
16d/J	.	16f/J	.	.	.	.	16d\JJ	.	16a-\JJ	.	.	.	.	.	.	.	.	.	16gg\J	16bb-\J
8e-/J	.	8g/J	.	.	.	.	8e-\	-is	8b-\	-is	.	.	.	8E-\	.	.	.	.	8aa-\J	8ccc\J
16r	.	16r	.	.	.	.	16r	.	16r	.	.	.	.	8BB-\	.	.	.	.	16r	16r
16d/LL	.	16f/LL	.	.	.	.	16d\LL	do-	16a-\LL	do-	.	.	.	.	.	.	.	.	16gg\LL	16bb-\LL
16e-/	.	16g/	.	.	.	.	16e-\JJ	.	16b-\JJ	.	.	.	.	8BB-\J	.	.	.	.	16aa-\	16ccc\
16f/JJ	.	16a-/JJ	.	.	.	.	16f\	-na	16cc\	-na	.	.	.	.	.	.	.	.	16bb-\JJ	16ddd\JJ
=11	=11	=11	=11	=11	=11	=11	=11	=11	=11	=11	=11	=11	=11	=11	=11	=11	=11	=11	=11	=11
16e-/LL	.	16g/LL	.	1r	.	.	16e-\LL	e-	16b-\LL	e-	1r	.	.	8E-\L	.	.	1r	1r	16aa-\LL	16ccc\LL
16d/J	.	16f/J	.	.	.	.	16d\JJ	.	16a-\JJ	.	.	.	.	.	.	.	.	.	16gg\J	16bb-\J
8e-/J	.	8g/J	.	.	.	.	8e-\	-is	8b-\	-is	.	.	.	8E-\	.	.	.	.	8aa-\J	8ccc\J
16r	.	16r	.	.	.	.	16r	.	16r	.	.	.	.	8BB-\	.	.	.	.	16r	16r
16d/LL	.	(16f/LL	.	.	.	.	16d\LL	do-	16a-\LL	do-	.	.	.	.	.	.	.	.	16gg\LL	16bb-\LL
16e-/	.	16g/	.	.	.	.	16e-\JJ	.	16b-\JJ	.	.	.	.	8BB-\J	.	.	.	.	16aa-\	16ccc\
16f/JJ	.	16a-/JJ)	.	.	.	.	16f\	-na	16cc\	-na	.	.	.	.	.	.	.	.	16bb-\JJ	16ddd\JJ
!LO:LB:g=original	!	!	!	!	!	!	!	!	!	!	!	!	!	!	!	!	!	!	!	!
(16e-/LL	.	16g|/LL	.	.	.	.	16e-\LL	e-	16b-\LL	e-	.	.	.	4E-\	.	.	.	.	16aa-\LL	16ccc\LL
16g/)	.	16b-|/	.	.	.	.	16g\JJ	.	16dd\JJ	.	.	.	.	.	.	.	.	.	16ccc\	16eee-\
16g|/	.	16b-|/	.	.	.	.	8g\	-is	8dd\	-is	.	.	.	.	.	.	.	.	16ccc\	16eee-\
16g|/JJ	.	16b-|/JJ	.	.	.	.	.	.	.	.	.	.	.	.	.	.	.	.	16ccc\JJ	16eee-\JJ
(16g/LL	.	(16b-/LL	.	.	.	.	16g\LL	do-	16dd\LL	do-	.	.	.	8D\L	.	.	.	.	16ccc\LL	16eee-\LL
16f/)	.	16a-/)	.	.	.	.	16f\JJ	.	16cc\JJ	.	.	.	.	.	.	.	.	.	16bb-\	16ddd\
(16f/	.	(16a-/	.	.	.	.	16f\LL	-mi-	16cc\LL	-mi-	.	.	.	8E-\J	.	.	.	.	16bb-\	16ddd\
16e-/JJ)	.	16g/JJ)	.	.	.	.	16e-\JJ	.	16b-\JJ	.	.	.	.	.	.	.	.	.	16aa-\JJ	16ccc\JJ
!	!	!	!	!	!	!	!LO:LB:g=original	!	!	!	!	!	!	!	!	!	!	!	!	!
=12	=12	=12	=12	=12	=12	=12	=12	=12	=12	=12	=12	=12	=12	=12	=12	=12	=12	=12	=12	=12
4e-/	.	4g/	.	1r	.	.	4e-\	.	4b-\	.	1r	.	.	16E-\LL	.	.	1r	1r	4aa-\	4ccc\
.	.	.	.	.	.	.	.	.	.	.	.	.	.	16F\	.	.	.	.	.	.
.	.	.	.	.	.	.	.	.	.	.	.	.	.	16G\	.	.	.	.	.	.
.	.	.	.	.	.	.	.	.	.	.	.	.	.	16A-\JJ	.	.	.	.	.	.
!	!	!	!	!	!	!	!	!	!	!	!	!	!	!LO:TX:t=P:problem:mixed beam	!	!	!	!	!	!
4d/	.	4f/	.	.	.	.	4d\	-ne	4a-\	-ne	.	.	.	8B-\L	.	.	.	.	4gg\	4bb-\
.	.	.	.	.	.	.	.	.	.	.	.	.	.	8BB-/J	.	.	.	.	.	.
8e-/L	.	16e-/LL	.	.	.	.	4r	.	4r	.	.	.	.	8E-\L	.	.	.	.	8aa-\L	16aa-\LL
.	.	16g/J	.	.	.	.	.	.	.	.	.	.	.	.	.	.	.	.	.	16ccc\J
8e-/J	.	8g/J	.	.	.	.	.	.	.	.	.	.	.	8E-\	.	.	.	.	8aa-\J	8ccc\J
16e-/LL	.	16g/LL	.	.	.	.	16e-\LL	do-	16b-\LL	do-	.	.	.	8E-\	.	.	.	.	16aa-\LL	16ccc\LL
16d/	.	16f/	.	.	.	.	16d\JJ	.	16a-\JJ	.	.	.	.	.	.	.	.	.	16gg\	16bb-\
16e-/	.	16g/	.	.	.	.	16e-\LL	-na	16b-\LL	-na	.	.	.	8E-\J	.	.	.	.	16aa-\	16ccc\
!	!	!	!	!	!	!	!	!	!	!	!	!	!	!LO:LB:g=original	!	!	!	!	!	!
16f/JJ	.	16a-/JJ	.	.	.	.	16f\JJ	.	16cc\JJ	.	.	.	.	.	.	.	.	.	16bb-\JJ	16ddd\JJ
!	!	!	!	!	!	!	!	!	!LO:LB:g=original	!	!	!	!	!	!	!	!	!	!	!
=13	=13	=13	=13	=13	=13	=13	=13	=13	=13	=13	=13	=13	=13	=13	=13	=13	=13	=13	=13	=13
8.g/L	.	8.b-\L	.	1r	.	.	8.g\L	e-	8.dd\L	e-	1r	.	.	8E-\L	.	.	1r	1r	8.ccc\L	8.eee-\L
.	.	.	.	.	.	.	.	.	.	.	.	.	.	8E-\	.	.	.	.	.	.
32a-/LL	.	32cc\LL	.	.	.	.	32a-\LL	.	32ee-\LL	.	.	.	.	.	.	.	.	.	32ddd\LL	32fff\LL
32g/JJJ	.	32b-\JJJ	.	.	.	.	32g\JJJ	.	32dd\JJJ	.	.	.	.	.	.	.	.	.	32ccc\JJJ	32ddd\JJJ
8f/L	.	8a-/L	.	.	.	.	8f\L	.	8cc\L	.	.	.	.	8E-\	.	.	.	.	8bb-\L	8ddd\L
8e-/J	.	8g/J	.	.	.	.	8e-\J	.	8b-\J	.	.	.	.	8E-\J	.	.	.	.	8aa-\J	8ccc\J
!	!	!LO:LB:g=original	!	!	!	!	!	!	!	!	!	!	!	!	!	!	!	!	!	!
16e-/LL	.	16g/LL	.	.	.	.	8d\	-is	8a-\	-is	.	.	.	8BB-/L	.	.	.	.	16aa-\LL	16ccc\LL
16d/J	.	16f/J	.	.	.	.	.	.	.	.	.	.	.	.	.	.	.	.	16gg\J	16bb-\J
8d/J	.	8f/J	.	.	.	.	8r	.	8r	.	.	.	.	8BB-/	.	.	.	.	8gg\J	8bb-\J
16d/LL	.	16f/LL	.	.	.	.	16d\LL	do-	16a-\LL	do-	.	.	.	8BB-/	.	.	.	.	16gg\LL	16bb-\LL
16c/	.	16e-/	.	.	.	.	16c\JJ	.	16g\JJ	.	.	.	.	.	.	.	.	.	16ff\	16aa-\
16d/	.	16f/	.	.	.	.	16d\LL	-na	16a-\LL	-na	.	.	.	8BB-/J	.	.	.	.	16gg\	16bb-\
16e-/JJ	.	16g/JJ	.	.	.	.	16e-\JJ	.	16b-\JJ	.	.	.	.	.	.	.	.	.	16aa-\JJ	16ccc\JJ
!	!	!	!	!	!	!	!	!	!	!	!	!	!	!	!	!	!	!	!LO:LB:g=original	!LO:LB:g=original
=14	=14	=14	=14	=14	=14	=14	=14	=14	=14	=14	=14	=14	=14	=14	=14	=14	=14	=14	=14	=14
8.f/L	.	8.a-/L	.	1r	.	.	8.f\L	do-	8.cc\L	do-	1r	.	.	8BB-/L	.	.	1r	1r	8.bb-\L	8.ddd\L
.	.	.	.	.	.	.	.	.	.	.	.	.	.	8BB-/	.	.	.	.	.	.
32g/LL	.	32b-/LL	.	.	.	.	32g\LL	.	32dd\LL	.	.	.	.	.	.	.	.	.	32ccc\LL	32eee-\LL
32f/JJJ	.	32a-/JJJ	.	.	.	.	32f\JJJ	.	32cc\JJJ	.	.	.	.	.	.	.	.	.	32bb-\JJJ	32ddd\JJJ
8e-/L	.	8g/L	.	.	.	.	8e-\	-na	8b-\L	-na	.	.	.	8BB-/	.	.	.	.	8aa-\L	8ccc\L
8d/J	.	8f/J	.	.	.	.	8d\	.	8a-\J	.	.	.	.	8BB-/J	.	.	.	.	8gg\J	8bb-\J
!	!	!	!	!	!	!	!	!	!	!	!	!	!	!LO:TX:t=P:problem:mixed beam	!	!	!	!	!	!
16e-/LL	.	16g/LL	.	.	.	.	16e-\LL	e-	16b-\LL	e-	.	.	.	8E-\L	.	.	.	.	16aa-\LL	16ccc\LL
16d/J	.	16f/J	.	.	.	.	16d\JJ	.	16a-\JJ	.	.	.	.	.	.	.	.	.	16gg\J	16bb-\J
8e-/J	.	8g/J	.	.	.	.	8e-\	-is	8b-\	-is	.	.	.	8E-\	.	.	.	.	8aa-\J	8ccc\J
16r	.	16r	.	.	.	.	16r	.	16r	.	.	.	.	8BB-/	.	.	.	.	16r	16r
16d/LL	.	16f/LL	.	.	.	.	16d\LL	do-	16a-\LL	do-	.	.	.	.	.	.	.	.	16gg\LL	16bb-\LL
16e-/	.	16g/	.	.	.	.	16e-\JJ	.	16b-\JJ	.	.	.	.	8BB-/J	.	.	.	.	16aa-\	16ccc\
16f/JJ	.	16a-/JJ	.	.	.	.	16f\	-na	16cc\	-na	.	.	.	.	.	.	.	.	16bb-\JJ	16ddd\JJ
!	!	!	!	!	!	!	!LO:LB:g=original	!	!	!	!	!	!	!	!	!	!	!	!	!
=15	=15	=15	=15	=15	=15	=15	=15	=15	=15	=15	=15	=15	=15	=15	=15	=15	=15	=15	=15	=15
!	!	!	!	!	!	!	!	!	!	!	!	!	!	!LO:TX:t=P:problem:mixed beam	!	!	!	!	!	!
16e-/LL	.	16g/LL	.	1r	.	.	16e-\LL	e-	16b-\LL	e-	1r	.	.	8E-\L	.	.	1r	1r	16aa-\LL	16ccc\LL
!	!	!	!	!	!	!	!	!	!	!	!LO:LB:g=original	!	!	!	!	!	!	!	!	!
16d/J	.	16f/J	.	.	.	.	16d\JJ	.	16a-\JJ	.	.	.	.	.	.	.	.	.	16gg\J	16bb-\J
8e-/J	.	8g/J	.	.	.	.	8e-\	-is	8b-\	-is	.	.	.	8E-\	.	.	.	.	8aa-\J	8ccc\J
16r	.	16r	.	.	.	.	16r	.	16r	.	.	.	.	8BB-/	.	.	.	.	16r	16r
16d/LL	.	16f/LL	.	.	.	.	16d\LL	do-	16a-\LL	do-	.	.	.	.	.	.	.	.	16gg\LL	16bb-\LL
16e-/	.	16g/	.	.	.	.	16e-\JJ	.	16b-\JJ	.	.	.	.	8BB-/J	.	.	.	.	16aa-\	16ccc\
16f/JJ	.	16a-/JJ	.	.	.	.	16f\	-na	16cc\	-na	.	.	.	.	.	.	.	.	16bb-\JJ	16ddd\JJ
!LO:TX:t=P:problem:klamra łukowa, kropka zamiast numeru	!	!LO:TX:t=P:problem:klamra łukowa, kropka zamiast numeru	!	!	!	!	!LO:TX:t=P:problem:klamra łukowa, kropka zamiast numeru	!	!LO:TX:t=P:problem:klamra łukowa, kropka zamiast numeru	!	!	!	!	!LO:TX:t=P:problem:mixed beam	!	!	!	!	!LO:TX:t=P:problem:klamra łukowa, kropka zamiast numeru	!LO:TX:t=P:problem:klamra łukowa, kropka zamiast numeru
24e-/LL	.	24g/LL	.	.	.	.	24e-\LL	e-	24b-\LL	e-	.	.	.	8E-\L	.	.	.	.	24gg\LL	24ccc\LL
24f/	.	24a-/	.	.	.	.	24f\	.	24cc\	.	.	.	.	.	.	.	.	.	24aa-\	24ddd\
24g/JJ	.	24b-/JJ	.	.	.	.	24g\JJ	.	24dd\JJ	.	.	.	.	.	.	.	.	.	24bb-\JJ	24eee-\JJ
!LO:TX:t=P:problem:klamra łukowa, kropka zamiast numeru	!	!LO:TX:t=P:problem:klamra łukowa, kropka zamiast numeru	!	!	!	!	!LO:TX:t=P:problem:klamra łukowa, kropka zamiast numeru	!	!LO:TX:t=P:problem:klamra łukowa, kropka zamiast numeru	!	!	!	!	!	!	!	!	!	!LO:TX:t=P:problem:klamra łukowa, kropka zamiast numeru	!LO:TX:t=P:problem:klamra łukowa, kropka zamiast numeru
24a-/LL	.	24cc/LL	.	.	.	.	24a-\LL	-is	24ee-\LL	-is	.	.	.	8A-\	.	.	.	.	24ddd\LL	24fff\LL
24g/	.	24b-/	.	.	.	.	24g\	.	24dd\	.	.	.	.	.	.	.	.	.	24ccc\	24eee-\
24f/JJ	.	24a-/JJ	.	.	.	.	24f\JJ	.	24cc\JJ	.	.	.	.	.	.	.	.	.	24bb-\JJ	24ddd\JJ
8e-/L	.	8g/L	.	.	.	.	8e-\	do-	8b-\	do-	.	.	.	8B-\	.	.	.	.	8aa-\L	8ccc\L
!	!	!LO:TX:a:i:t=T&colon;	!	!	!	!	!	!	!	!	!	!	!	!	!	!	!	!	!	!
!	!	!	!LO:DY:b:t=for	!	!	!	!	!	!	!	!	!	!	!	!	!	!	!	!	!
8d/J	.	8f/J	f	.	.	.	8d\	-mi-	8a-\	-mi-	.	.	.	8BB-/J	.	.	.	.	8gg\J	8bb-\J
!LO:LB:g=original	!	!	!	!	!	!	!	!	!LO:LB:g=original	!	!	!	!	!	!	!	!	!	!	!
=16	=16	=16	=16	=16	=16	=16	=16	=16	=16	=16	=16	=16	=16	=16	=16	=16	=16	=16	=16	=16
!LO:TX:a:i:t=Tutti	!	!LO:TX:t=P:problem:klamra łukowa, kropka zamiast numeru	!	!	!	!	!	!	!	!	!	!	!	!LO:TX:t=P:problem:mixed beam	!	!	!	!	!	!
!	!	!	!	!	!	!	!	!	!	!	!	!	!	!LO:TX:a:i:t=Tutti	!	!	!	!	!	!
16e-/LL	.	24gg\LL	.	4r	.	.	4e-\	-ne	4b-\	-ne,	4r	.	.	8E-\L	3	.	4r	4r	4aa-\	4ccc\
!	!	!	!	!	!	!	!	!	!	!	!	!	!	!LO:TX:b:i:t=org	!	!	!	!	!	!
.	.	24ff\	.	.	.	.	.	.	.	.	.	.	.	.	.	.	.	.	.	.
16b-/	.	.	.	.	.	.	.	.	.	.	.	.	.	.	.	.	.	.	.	.
.	.	24ee-\J	.	.	.	.	.	.	.	.	.	.	.	.	.	.	.	.	.	.
16g/	.	8ee-\J	.	.	.	.	.	.	.	.	.	.	.	8G\	6	.	.	.	.	.
16b-/JJ	.	.	.	.	.	.	.	.	.	.	.	.	.	.	.	.	.	.	.	.
!	!	!LO:TX:t=P:problem:klamra łukowa, kropka zamiast numeru	!	!	!	!	!	!	!	!	!	!	!	!	!	!	!	!	!LO:TX:a:i:t=Tutti	!LO:TX:a:i:t=Tutti
16d/LL	.	24dd\LL	.	8r	.	.	8r	.	8r	.	8r	.	.	8BB-/	.	.	8r	8r	8r	8r
.	.	24ff\	.	.	.	.	.	.	.	.	.	.	.	.	.	.	.	.	.	.
16b-/	.	.	.	.	.	.	.	.	.	.	.	.	.	.	.	.	.	.	.	.
.	.	24aa-\JJ	.	.	.	.	.	.	.	.	.	.	.	.	.	.	.	.	.	.
!	!	!LO:TX:t=P:problem:klamra łukowa, kropka zamiast numeru	!	!	!	!	!LO:TX:a:i:t=T&colon;	!	!	!	!	!	!	!	!	!	!	!	!	!
16f/	.	24ccc\LL	.	8D\	et	.	8f\	et	8dd\	et	8aa-\	et	.	8D/J	.	.	8B-/	8f\	8b-/	8dd/
.	.	24bb-\	.	.	.	.	.	.	.	.	.	.	.	.	.	.	.	.	.	.
16b-/JJ	.	.	.	.	.	.	.	.	.	.	.	.	.	.	.	.	.	.	.	.
.	.	24aa-\JJ	.	.	.	.	.	.	.	.	.	.	.	.	.	.	.	.	.	.
!	!	!	!	!	!	!	!	!	!	!	!	!	!	!LO:TX:t=P:problem:mixed beam	!	!	!	!	!	!
.	.	8qqgg/	.	.	.	.	.	.	.	.	.	.	.	.	.	.	.	.	.	.
16e-/LL	.	16gg\LL	.	4E-\	lux	.	4e-\	lux	4dd\	lux	4gg\	lux	.	8E-\L	.	.	4e-\	4g-\	4a-/	4cc/
16b-/	.	32ff\L	.	.	.	.	.	.	.	.	.	.	.	.	.	.	.	.	.	.
.	.	32ee-\JJ	.	.	.	.	.	.	.	.	.	.	.	.	.	.	.	.	.	.
16g/	.	8ee-\J	.	.	.	.	.	.	.	.	.	.	.	8G\	.	.	.	.	.	.
16b-/JJ	.	.	.	.	.	.	.	.	.	.	.	.	.	.	.	.	.	.	.	.
!	!	!LO:TX:t=P:problem:klamra łukowa, kropka zamiast numeru	!	!	!	!	!	!	!	!	!	!	!	!	!	!	!	!	!	!
16d/LL	.	24dd\LL	.	8r	.	.	8r	.	8r	.	8r	.	.	8BB-/	.	.	8r	8r	8r	8r
.	.	24ff\	.	.	.	.	.	.	.	.	.	.	.	.	.	.	.	.	.	.
16b-/	.	.	.	.	.	.	.	.	.	.	.	.	.	.	.	.	.	.	.	.
.	.	24aa-\JJ	.	.	.	.	.	.	.	.	.	.	.	.	.	.	.	.	.	.
!	!	!LO:TX:t=P:problem:klamra łukowa, kropka zamiast numeru	!	!	!	!	!	!	!	!	!	!	!	!	!	!	!	!	!	!
16f/	.	24ccc\LL	.	8D\	et	.	8f\	et	8dd\	et	8aa-\	et	.	8D/J	.	.	8c/	8f\	8b-/	8dd/
!	!	!	!	!LO:LB:g=original	!	!	!	!	!	!	!	!	!	!	!	!	!	!	!	!
.	.	24bb-\	.	.	.	.	.	.	.	.	.	.	.	.	.	.	.	.	.	.
16b-/JJ	.	.	.	.	.	.	.	.	.	.	.	.	.	.	.	.	.	.	.	.
.	.	24aa-\JJ	.	.	.	.	.	.	.	.	.	.	.	.	.	.	.	.	.	.
!	!	!LO:LB:g=original	!	!	!	!	!	!	!	!	!	!	!	!	!	!	!	!	!	!
=17	=17	=17	=17	=17	=17	=17	=17	=17	=17	=17	=17	=17	=17	=17	=17	=17	=17	=17	=17	=17
!	!	!	!	!	!	!	!	!	!	!	!	!	!	!	!	!	!LO:TX:t=P:problem:pierwsza połowa taktu niewidoczna	!	!	!
.	.	8qqgg/	.	.	.	.	.	.	.	.	.	.	.	.	.	.	.	.	.	.
16e-/LL	.	16gg\LL	.	4E-\	lux	.	4e-\	lux	4dd\	lux	4gg\	lux	.	8E-\L	5	.	2r	4g-\	4a-/	4cc/
!	!	!	!	!	!	!	!	!	!	!	!	!	!	!	!	!	!LO:LB:g=original	!	!	!
16b-/	.	32ff\L	.	.	.	.	.	.	.	.	.	.	.	.	.	.	.	.	.	.
.	.	32ee-\JJ	.	.	.	.	.	.	.	.	.	.	.	.	.	.	.	.	.	.
16g/	.	8.ee-\J	.	.	.	.	.	.	.	.	.	.	.	8E-\	.	.	.	.	.	.
16b-/JJ	.	.	.	.	.	.	.	.	.	.	.	.	.	.	.	.	.	.	.	.
*Xtremolo	*	*	*	*	*	*	*	*	*	*	*	*	*	*	*	*	*	*	*	*
16e-/LL	.	.	.	4E-\	per-	.	4e-\	per-	4b-\	per-	4b-\	per-	.	8E-\	.	.	.	4g-\	4cc/	4ee-/
16g/	.	16bb-\LL	.	.	.	.	.	.	.	.	.	.	.	.	.	.	.	.	.	.
16e-/	.	16bb-\	.	.	.	.	.	.	.	.	.	.	.	8E-\J	.	.	.	.	.	.
16g/JJ	.	16bb-\JJ	.	.	.	.	.	.	.	.	.	.	.	.	.	.	.	.	.	.
.	.	8qqbb-/	.	.	.	.	.	.	.	.	.	.	.	.	.	.	.	.	.	.
16e-/LL	.	16aan\LL	.	4.E-\	-pe-	.	4.f\	-pe-	4.e-\	-pe-	4.an\	-pe-	.	8E-\L	4 2	.	2f\	2f\	2b-/	4dd\
16f/	.	32gg\L	.	.	.	.	.	.	.	.	.	.	.	.	.	.	.	.	.	.
.	.	32ff\JJ	.	.	.	.	.	.	.	.	.	.	.	.	.	.	.	.	.	.
16e-/	.	8.ff\J	.	.	.	.	.	.	.	.	.	.	.	8E-\	.	.	.	.	.	.
16f/JJ	.	.	.	.	.	.	.	.	.	.	.	.	.	.	.	.	.	.	.	.
16e-/LL	.	.	.	.	.	.	.	.	.	.	.	.	.	8E-\	.	.	.	.	.	4ff\
16f/	.	16aa\LL	.	.	.	.	.	.	.	.	.	.	.	.	.	.	.	.	.	.
16e-/	.	16aa\	.	8E-\	-tu-	.	8f\	-tu-	8e-\	-tu-	8a\	-tu-	.	8E-\J	.	.	.	.	.	.
16f/JJ	.	16aa\JJ	.	.	.	.	.	.	.	.	.	.	.	.	.	.	.	.	.	.
=18	=18	=18	=18	=18	=18	=18	=18	=18	=18	=18	=18	=18	=18	=18	=18	=18	=18	=18	=18	=18
16d/LL	.	32ccc\LLL	.	2D\	-a	.	2f\	-a	2f\	-a	2b-\	-a	.	8D\L	6	.	1f	1f	2b-/	4ee-\
!	!	!	!	!	!	!	!	!	!	!	!	!	!	!	!	!	!	!LO:LB:g=original	!	!
.	.	32bb-\	.	.	.	.	.	.	.	.	.	.	.	.	.	.	.	.	.	.
16f/	.	32aan\	.	.	.	.	.	.	.	.	.	.	.	.	.	.	.	.	.	.
.	.	32bb-\JJJ	.	.	.	.	.	.	.	.	.	.	.	.	.	.	.	.	.	.
16d/	.	8.ff\L	.	.	.	.	.	.	.	.	.	.	.	8D\	.	.	.	.	.	.
16f/JJ	.	.	.	.	.	.	.	.	.	.	.	.	.	.	.	.	.	.	.	.
16d/LL	.	.	.	.	.	.	.	.	.	.	.	.	.	8D\	.	.	.	.	.	4gg\
16f/	.	16ddd\L	.	.	.	.	.	.	.	.	.	.	.	.	.	.	.	.	.	.
16d/	.	16ddd\	.	.	.	.	.	.	.	.	.	.	.	8D\J	.	.	.	.	.	.
16f/JJ	.	16ddd\JJ	.	.	.	.	.	.	.	.	.	.	.	.	.	.	.	.	.	.
16An/LL	.	8.ccc\L	.	2AAn/	lu-	.	2f\	lu-	2g\	lu-	2cc\	lu-	.	8AAn/L	6 5	.	.	.	2b-/	4ff\
16f/	.	.	.	.	.	.	.	.	.	.	.	.	.	.	.	.	.	.	.	.
16c/	.	.	.	.	.	.	.	.	.	.	.	.	.	8AAn/	.	.	.	.	.	.
16f/JJ	.	16aa\Jk	.	.	.	.	.	.	.	.	.	.	.	.	.	.	.	.	.	.
16A/LL	.	16ff\LL	.	.	.	.	.	.	.	.	.	.	.	8AAn/	.	.	.	.	.	4aa-\
16f/	.	16ee-\	.	.	.	.	.	.	.	.	.	.	.	.	.	.	.	.	.	.
16c/	.	16cc\	.	.	.	.	.	.	.	.	.	.	.	8AAn/J	.	.	.	.	.	.
16f/JJ	.	16ee-\JJ	.	.	.	.	.	.	.	.	.	.	.	.	.	.	.	.	.	.
=19	=19	=19	=19	=19	=19	=19	=19	=19	=19	=19	=19	=19	=19	=19	=19	=19	=19	=19	=19	=19
16B-/LL	.	16ee-\LL	.	4BB-/	-ce-	.	4f\	-ce-	4f\	-ce-	4b-\	-ce-	.	8BB-/L	.	.	2B-/	1f	2b-/	2gg\
16f/	.	16dd\	.	.	.	.	.	.	.	.	.	.	.	.	.	.	.	.	.	.
16d/	.	16gg\	.	.	.	.	.	.	.	.	.	.	.	8BB-/	.	.	.	.	.	.
16f/JJ	.	16ff\JJ	.	.	.	.	.	.	.	.	.	.	.	.	.	.	.	.	.	.
16B-/LL	.	16ff\LL	.	4BB-/	-at	.	4f\	-at	4f\	-at	4b-\	-at	.	8D/	.	.	.	.	.	.
16f/	.	16bb-\JJ	.	.	.	.	.	.	.	.	.	.	.	.	.	.	.	.	.	.
16d/	.	32bb-\LLL	.	.	.	.	.	.	.	.	.	.	.	8BB-/J	.	.	.	.	.	.
.	.	32aan\	.	.	.	.	.	.	.	.	.	.	.	.	.	.	.	.	.	.
16f/JJ	.	32bb-\	.	.	.	.	.	.	.	.	.	.	.	.	.	.	.	.	.	.
.	.	32ddd\JJJ	.	.	.	.	.	.	.	.	.	.	.	.	.	.	.	.	.	.
16An/LL	.	16ccc\LL	.	2AAn/	e-	.	2f\	e-	2g\	e-	2cc\	e-	.	8AAn/L	6 5	.	2f\	.	2b-/	2aa-\
16f/	.	16bbn\	.	.	.	.	.	.	.	.	.	.	.	.	.	.	.	.	.	.
16c/	.	16ccc\	.	.	.	.	.	.	.	.	.	.	.	8AAn/	.	.	.	.	.	.
16f/JJ	.	16aa\JJ	.	.	.	.	.	.	.	.	.	.	.	.	.	.	.	.	.	.
16A/LL	.	16ff\LL	.	.	.	.	.	.	.	.	.	.	.	8AAn/	.	.	.	.	.	.
16f/	.	16ee-\	.	.	.	.	.	.	.	.	.	.	.	.	.	.	.	.	.	.
16c/	.	16cc\	.	.	.	.	.	.	.	.	.	.	.	8AAn/J	.	.	.	.	.	.
!	!	!	!	!	!	!	!	!	!	!	!	!	!	!LO:LB:g=original	!	!	!	!	!	!
16f/JJ	.	16ee-\JJ	.	.	.	.	.	.	.	.	.	.	.	.	.	.	.	.	.	.
!LO:LB:g=original	!	!	!	!	!	!	!	!	!	!	!	!	!	!	!	!	!	!	!	!
=20	=20	=20	=20	=20	=20	=20	=20	=20	=20	=20	=20	=20	=20	=20	=20	=20	=20	=20	=20	=20
16B-/LL	.	16ee-\LL	.	4BB-/	-is	.	4f\	-is	4f\	-is	4b-\	-is	.	8BB-/L	.	.	4B-/	4f\	4b-/	4gg\
16f/	.	16dd\	.	.	.	.	.	.	.	.	.	.	.	.	.	.	.	.	.	.
16d/	.	16gg\	.	.	.	.	.	.	.	.	.	.	.	8BB-/	.	.	.	.	.	.
16f/JJ	.	16ff\JJ	.	.	.	.	.	.	.	.	.	.	.	.	.	.	.	.	.	.
16d/LL	.	8ff\L	.	4r	.	.	4r	.	8r	.	8r	.	.	8BB-/	.	.	4B-/	4f\	4r	4r
!	!	!	!	!	!	!	!	!	!	!	!	!	!	!	!	!	!	!	!LO:LB:g=original	!
16f/	.	.	.	.	.	.	.	.	.	.	.	.	.	.	.	.	.	.	.	.
16b-/	.	8bb-\J	.	.	.	.	.	.	8dd\	lu-	8b-\	lu-	.	8D/J	.	.	.	.	.	.
!	!	!LO:LB:g=original	!	!	!	!	!	!	!	!	!	!	!	!	!	!	!	!	!	!
16dd/JJ	.	.	.	.	.	.	.	.	.	.	.	.	.	.	.	.	.	.	.	.
8.ee-\L	.	8.gg\L	.	8r	.	.	2r	.	8.gg\L	.	8.gg\L	.	.	8E-\L	10 8	.	2r	2r	8r	8r
!	!	!	!	!	!	!	!LO:LB:g=original	!	!	!	!	!	!	!	!	!	!	!	!	!
.	.	.	.	8E-\	lu-	.	.	.	.	.	.	.	.	8E-\	9 7	.	.	.	16r	16r
16dd\Jk	.	16ff\Jk	.	.	.	.	.	.	16ff\Jk	.	16ff\Jk	.	.	.	.	.	.	.	16gg\	16bb-\
16dd\LL	.	16ff\LL	.	8E-\	-ce-	.	.	.	16ff\LL	-ce-	16ff\LL	-ce-	.	8E-\	8 6	.	.	.	16gg\LL	16bb-\LL
16cc\	.	16ee-\	.	.	.	.	.	.	16ff\JJ	.	16ee-\JJ	.	.	.	.	.	.	.	16ff\	16aa-\
16cc\	.	16ee-\	.	8E-\	-at	.	.	.	16ee-\LL	-at	16ee-\LL	-at	.	8E-\J	7 5	.	.	.	16ff\	16aa-\
16b-\JJ	.	16dd\JJ	.	.	.	.	.	.	16dd\JJ	.	16dd\JJ	.	.	.	.	.	.	.	16ee-\JJ	16gg\JJ
!	!	!	!	!	!	!	!	!	!	!	!	!	!	!	!	!	!	!	!	!LO:LB:g=original
=21	=21	=21	=21	=21	=21	=21	=21	=21	=21	=21	=21	=21	=21	=21	=21	=21	=21	=21	=21	=21
!	!	!LO:TX:a:i:t=t.	!	!	!	!	!	!	!	!	!	!	!	!LO:TX:t=P:problem:mixed beam	!	!	!	!	!	!
8b-\L	.	8dd\L	.	8F\	e-	.	8f\	e-	8dd\	e-	8dd\	e-	.	8F\L	6 4	.	8f\L	8f\L	8ee-\L	8gg\L
8an\J	.	8cc\J	.	8FF/	-is.	.	8F/	-is	8ccn\	-is	8cc\	-is	.	16FF/L	5 n	.	8f\J	8f\J	8dd\J	8ff\J
.	.	.	.	.	.	.	.	.	.	.	.	.	.	16F|\JJ	.	.	.	.	.	.
4r	.	4r	.	4r	.	.	4r	.	4r	.	4r	.	.	16F|\LL	.	.	4r	4r	4r	4r
.	.	.	.	.	.	.	.	.	.	.	.	.	.	16D|\	.	.	.	.	.	.
.	.	.	.	.	.	.	.	.	.	.	.	.	.	16E-|\	.	.	.	.	.	.
.	.	.	.	.	.	.	.	.	.	.	.	.	.	16C|\JJ	.	.	.	.	.	.
*tremolo	*tremolo	*	*	*	*	*	*	*	*	*	*	*	*	*	*	*	*	*	*	*
!	!LO:DY:b:t=pia	!	!LO:DY:b:t=piano	!	!	!	!	!	!	!	!	!	!	!	!	!LO:DY:b:t=po.	!	!	!	!
8d/ 8b-L	p	4f/	p	2r	.	.	2r	.	2r	.	2r	.	.	8BB-/L	5 3	p	2r	2r	2r	2r
!	!	!	!	!	!	!	!	!	!LO:LB:g=original	!	!LO:LB:g=original	!	!	!	!	!	!	!	!	!
8d/ 8b-	.	.	.	.	.	.	.	.	.	.	.	.	.	8BB-/	.	.	.	.	.	.
8d/ 8b-	.	16d/LL	.	.	.	.	.	.	.	.	.	.	.	8BB-/	.	.	.	.	.	.
.	.	16f/	.	.	.	.	.	.	.	.	.	.	.	.	.	.	.	.	.	.
8d/ 8b-J	.	16b-/	.	.	.	.	.	.	.	.	.	.	.	8BB-/J	.	.	.	.	.	.
.	.	16a-X/JJ	.	.	.	.	.	.	.	.	.	.	.	.	.	.	.	.	.	.
=22	=22	=22	=22	=22	=22	=22	=22	=22	=22	=22	=22	=22	=22	=22	=22	=22	=22	=22	=22	=22
*^	*	*	*	*	*	*	*	*	*	*	*	*	*	*	*	*	*	*	*	*
*	*tremolo	*	*	*	*	*	*	*	*	*	*	*	*	*	*	*	*	*	*	*	*
8b-/L	2e-/	.	16a-/LL	.	1r	.	.	1r	.	1r	.	1r	.	.	8BB-/L	6 4	.	1r	1r	1r	1r
.	.	.	16g/	.	.	.	.	.	.	.	.	.	.	.	.	.	.	.	.	.	.
8b-/	.	.	16f#X/	.	.	.	.	.	.	.	.	.	.	.	8BB-/	.	.	.	.	.	.
.	.	.	16g/JJ	.	.	.	.	.	.	.	.	.	.	.	.	.	.	.	.	.	.
8b-/	.	.	8.g/L	.	.	.	.	.	.	.	.	.	.	.	8BB-/	.	.	.	.	.	.
8b-/J	.	.	.	.	.	.	.	.	.	.	.	.	.	.	8BB-/J	.	.	.	.	.	.
.	.	.	16b-/Jk	.	.	.	.	.	.	.	.	.	.	.	.	.	.	.	.	.	.
.	.	.	8qqb-/	.	.	.	.	.	.	.	.	.	.	.	.	n	.	.	.	.	.
8ee-\L	8f/L	.	8an/L	.	.	.	.	.	.	.	.	.	.	.	8BB-/L	7 2	.	.	.	.	.
8ee-\	8f/	.	8.a/J	.	.	.	.	.	.	.	.	.	.	.	8BB-/	.	.	.	.	.	.
8ee-\	8f/	.	.	.	.	.	.	.	.	.	.	.	.	.	8BB-/	.	.	.	.	.	.
.	.	.	16cc/LL	.	.	.	.	.	.	.	.	.	.	.	.	.	.	.	.	.	.
8ee-\J	8f/J	.	16fn/	.	.	.	.	.	.	.	.	.	.	.	8BB-/J	.	.	.	.	.	.
.	.	.	16a/JJ	.	.	.	.	.	.	.	.	.	.	.	.	.	.	.	.	.	.
=23	=23	=23	=23	=23	=23	=23	=23	=23	=23	=23	=23	=23	=23	=23	=23	=23	=23	=23	=23	=23	=23
*	*tremolo	*	*	*	*	*	*	*	*	*	*	*	*	*	*	*	*	*	*	*	*
8ee-\L	8f/L	.	16cc\LL	.	1r	.	.	1r	.	1r	.	1r	.	.	8BB-/L	8	.	1r	1r	1r	1r
.	.	.	16b-\	.	.	.	.	.	.	.	.	.	.	.	.	.	.	.	.	.	.
8ee-\	8f/	.	16an\	.	.	.	.	.	.	.	.	.	.	.	8BB-/	.	.	.	.	.	.
.	.	.	16b-\JJ	.	.	.	.	.	.	.	.	.	.	.	.	.	.	.	.	.	.
8ee-\	8f/	.	8.b-\L	.	.	.	.	.	.	.	.	.	.	.	8BB-/	.	.	.	.	.	.
8ee-\J	8f/J	.	.	.	.	.	.	.	.	.	.	.	.	.	8BB-/J	.	.	.	.	.	.
.	.	.	16dd\Jk	.	.	.	.	.	.	.	.	.	.	.	.	.	.	.	.	.	.
*Xtremolo	*Xtremolo	*	*	*	*	*	*	*	*	*	*	*	*	*	*	*	*	*	*	*	*
16An/LL	8ryy	.	16dd\LL	.	.	.	.	.	.	.	.	.	.	.	8AAn/L	6	.	.	.	.	.
16f/JJ	.	.	16cc\	.	.	.	.	.	.	.	.	.	.	.	.	.	.	.	.	.	.
16A/LL	8ryy	.	16bn\	.	.	.	.	.	.	.	.	.	.	.	8AAn/	.	.	.	.	.	.
16f/JJ	.	.	16cc\JJ	.	.	.	.	.	.	.	.	.	.	.	.	.	.	.	.	.	.
16A/LL	8ryy	.	8.ff\L	.	.	.	.	.	.	.	.	.	.	.	8AAn/	.	.	.	.	.	.
16f/JJ	.	.	.	.	.	.	.	.	.	.	.	.	.	.	.	.	.	.	.	.	.
16A/LL	8ryy	.	.	.	.	.	.	.	.	.	.	.	.	.	8AAn/J	.	.	.	.	.	.
16f/JJ	.	.	16ee-\Jk	.	.	.	.	.	.	.	.	.	.	.	.	.	.	.	.	.	.
*v	*v	*	*	*	*	*	*	*	*	*	*	*	*	*	*	*	*	*	*	*	*
=24	=24	=24	=24	=24	=24	=24	=24	=24	=24	=24	=24	=24	=24	=24	=24	=24	=24	=24	=24	=24
16B-/LL	.	16ee-\LL	.	1r	.	.	1r	.	1r	.	1r	.	.	8BB-/L	.	.	1r	1r	1r	1r
!	!	!	!	!LO:LB:g=original	!	!	!	!	!	!	!	!	!	!	!	!	!	!	!	!
16f/JJ	.	16dd\	.	.	.	.	.	.	.	.	.	.	.	.	.	.	.	.	.	.
16B-/LL	.	16cc\	.	.	.	.	.	.	.	.	.	.	.	8BB-/	.	.	.	.	.	.
16f/JJ	.	16dd\JJ	.	.	.	.	.	.	.	.	.	.	.	.	.	.	.	.	.	.
16B-/LL	.	8.ff\L	.	.	.	.	.	.	.	.	.	.	.	8BB-/	.	.	.	.	.	.
16f/JJ	.	.	.	.	.	.	.	.	.	.	.	.	.	.	.	.	.	.	.	.
16B-/LL	.	.	.	.	.	.	.	.	.	.	.	.	.	8D/J	.	.	.	.	.	.
16f/JJ	.	16b-\Jk	.	.	.	.	.	.	.	.	.	.	.	.	.	.	.	.	.	.
*Xtremolo	*	*	*	*	*	*	*	*	*	*	*	*	*	*	*	*	*	*	*	*
16G/LL	.	16g/LL	.	.	.	.	.	.	.	.	.	.	.	8E-\	.	.	.	.	.	.
16G/	.	16gm/	.	.	.	.	.	.	.	.	.	.	.	.	.	.	.	.	.	.
16e-/	.	(16ee-\	.	.	.	.	.	.	.	.	.	.	.	8r	.	.	.	.	.	.
16d/JJ	.	16dd\JJ)	.	.	.	.	.	.	.	.	.	.	.	.	.	.	.	.	.	.
16c/LL	.	16cc\LL	.	.	.	.	.	.	.	.	.	.	.	8r	.	.	.	.	.	.
16c/	.	16ccM\	.	.	.	.	.	.	.	.	.	.	.	.	.	.	.	.	.	.
16d/	.	(16dd\	.	.	.	.	.	.	.	.	.	.	.	8En\	5 3	.	.	.	.	.
16B-/JJ	.	16b-\JJ)	.	.	.	.	.	.	.	.	.	.	.	.	.	.	.	.	.	.
!	!	!LO:LB:g=original	!	!	!	!	!	!	!	!	!	!	!	!	!	!	!	!	!	!
=25	=25	=25	=25	=25	=25	=25	=25	=25	=25	=25	=25	=25	=25	=25	=25	=25	=25	=25	=25	=25
!	!	!	!	!	!	!	!	!	!	!	!	!	!	!LO:TX:t=P:problem:mixed beam	!	!	!	!	!	!
(16An/LL	.	(16an/LL	.	2r	.	.	2r	.	2r	.	2r	.	.	8F\L	n	.	2r	2r	2r	2r
16c/)	.	16cc/)	.	.	.	.	.	.	.	.	.	.	.	.	.	.	.	.	.	.
16A'/	.	16a|/	.	.	.	.	.	.	.	.	.	.	.	8FF/J	.	.	.	.	.	.
16A'/JJ	.	16a|/JJ	.	.	.	.	.	.	.	.	.	.	.	.	.	.	.	.	.	.
4A/	.	4a|/	.	.	.	.	.	.	.	.	.	.	.	16F|\LL	.	.	.	.	.	.
.	.	.	.	.	.	.	.	.	.	.	.	.	.	16E|-\	.	.	.	.	.	.
.	.	.	.	.	.	.	.	.	.	.	.	.	.	16D|\	.	.	.	.	.	.
.	.	.	.	.	.	.	.	.	.	.	.	.	.	16C|\JJ	.	.	.	.	.	.
!LO:TX:a:i:t=T&colon;	!	!LO:TX:a:i:t=Tutti	!	!	!	!	!	!	!	!	!	!	!	!	!	!	!	!	!	!
!	!LO:DY:b:t=for	!	!LO:DY:b:t=for	!	!	!	!	!	!	!	!	!	!	!	!	!	!	!	!	!
!	!	!	!	!	!	!	!	!	!	!	!	!	!	!LO:TX:a:i:t=T&colon;	!	!	!	!	!	!
!	!	!	!	!	!	!	!	!	!	!	!	!	!	!	!	!LO:DY:b:t=for	!	!	!	!
*tremolo	*	*	*	*	*	*	*	*	*	*	*	*	*	*	*	*	*	*	*	*
8d/ 8b-L	f	4f/	f	4.BB-/	Re-	.	4.B-\	Re-	4.f\	Re-	4.f/	Re-	.	8BB-/L	3	f	4B-/	4f\	4g/	4b-/
!LO:LB:g=original	!	!	!	!	!	!	!	!	!	!	!	!	!	!	!	!	!	!	!	!
8d/ 8b-	.	.	.	.	.	.	.	.	.	.	.	.	.	8BB-/	.	.	.	.	.	.
8d/ 8b-	.	16d/LL	.	.	.	.	.	.	.	.	.	.	.	8BB-/	.	.	4B-/	4f\	4g/	4b-/
.	.	16f/	.	.	.	.	.	.	.	.	.	.	.	.	.	.	.	.	.	.
8d/ 8b-J	.	16b-/	.	8BB-/	-qui-	.	8B-\	-qui-	8f\	-qui-	8f/	-qui-	.	8BB-/J	.	.	.	.	.	.
.	.	16a-X/JJ	.	.	.	.	.	.	.	.	.	.	.	.	.	.	.	.	.	.
=26	=26	=26	=26	=26	=26	=26	=26	=26	=26	=26	=26	=26	=26	=26	=26	=26	=26	=26	=26	=26
8e-/ 8b-L	.	16a-/LL	.	4E-\	-em	.	4B-\	-em	4g\	-em	4g\	-em	.	8BB-/L	6 4	.	4e-\	4g-\	4a-/	4cc/
.	.	16g/	.	.	.	.	.	.	.	.	.	.	.	.	.	.	.	.	.	.
8e-/ 8b-	.	16f#X/	.	.	.	.	.	.	.	.	.	.	.	8BB-/	.	.	.	.	.	.
.	.	16g/JJ	.	.	.	.	.	.	.	.	.	.	.	.	.	.	.	.	.	.
8e-/ 8b-	.	8.g/L	.	4r	.	.	4r	.	4r	.	4r	.	.	8BB-/	.	.	4r	4r	4r	4r
8e-/ 8b-J	.	.	.	.	.	.	.	.	.	.	.	.	.	8BB-/J	.	.	.	.	.	.
!	!	!	!	!	!	!	!	!	!	!	!	!	!	!LO:LB:g=original	!	!	!	!	!	!
.	.	16b-/Jk	.	.	.	.	.	.	.	.	.	.	.	.	.	.	.	.	.	.
.	.	8qqb-/	.	.	.	.	.	.	.	.	.	.	.	.	n	.	.	.	.	.
*^	*	*	*	*	*	*	*	*	*	*	*	*	*	*	*	*	*	*	*	*
8ee-\L	8f/L	.	8an/L	.	4.E-\	Re-	.	4.e-\	Re-	4.e-\	Re-	4.an\	Re-	.	8BB-/L	7 2	.	4f\	4f\	4f/	4dd\
8ee-\	8f/	.	8.a/J	.	.	.	.	.	.	.	.	.	.	.	8BB-/	.	.	.	.	.	.
8ee-\	8f/	.	.	.	.	.	.	.	.	.	.	.	.	.	8BB-/	.	.	4f\	4f\	4f/	4dd\
.	.	.	16cc/LL	.	.	.	.	.	.	.	.	.	.	.	.	.	.	.	.	.	.
8ee-\J	8f/J	.	16fn/	.	8E-\	-qui-	.	8e-\	-qui-	8e-\	-qui-	8a\	-qui-	.	8BB-/J	.	.	.	.	.	.
.	.	.	16a/JJ	.	.	.	.	.	.	.	.	.	.	.	.	.	.	.	.	.	.
=27	=27	=27	=27	=27	=27	=27	=27	=27	=27	=27	=27	=27	=27	=27	=27	=27	=27	=27	=27	=27	=27
8dd\L	8f/L	.	16cc\LL	.	4D\	-em	.	4d\	-em	4f\	-em	4b-\	-em	.	8BB-/L	8 5	.	4B-/	4f\	4g/	4ee-\
.	.	.	16b-\	.	.	.	.	.	.	.	.	.	.	.	.	.	.	.	.	.	.
8dd\	8f/	.	16an\	.	.	.	.	.	.	.	.	.	.	.	8BB-/	.	.	.	.	.	.
.	.	.	16b-\JJ	.	.	.	.	.	.	.	.	.	.	.	.	.	.	.	.	.	.
8dd\	8f/	.	8.b-\L	.	4r	.	.	4r	.	4r	.	4r	.	.	8BB-/	.	.	4r	4r	4r	4r
8dd\J	8f/J	.	.	.	.	.	.	.	.	.	.	.	.	.	8BB-/J	.	.	.	.	.	.
.	.	.	16dd\Jk	.	.	.	.	.	.	.	.	.	.	.	.	.	.	.	.	.	.
*v	*v	*	*	*	*	*	*	*	*	*	*	*	*	*	*	*	*	*	*	*	*
*tremolo	*tremolo	*	*	*	*	*	*	*	*	*	*	*	*	*	*	*	*	*	*	*
16An/LL	.	16dd\LL	.	2AAn/	ae-	.	2e-\	a-	2a-\	a-	2cc\	a-	.	8AAn/L	6	.	2f\	2f\	8r	8r
16f/JJ	.	16cc\	.	.	.	.	.	.	.	.	.	.	.	.	.	.	.	.	.	.
16A/LL	.	16bn\	.	.	.	.	.	.	.	.	.	.	.	8AAn/	.	.	.	.	8b-/	8ff\
16f/JJ	.	16cc\JJ	.	.	.	.	.	.	.	.	.	.	.	.	.	.	.	.	.	.
16A/LL	.	8.ff\L	.	.	.	.	.	.	.	.	.	.	.	8AAn/	.	.	.	.	4b-/	4ff\
16f/JJ	.	.	.	.	.	.	.	.	.	.	.	.	.	.	.	.	.	.	.	.
16A/LL	.	.	.	.	.	.	.	.	.	.	.	.	.	8AAn/J	.	.	.	.	.	.
16f/JJ	.	16ee-\Jk	.	.	.	.	.	.	.	.	.	.	.	.	.	.	.	.	.	.
=28	=28	=28	=28	=28	=28	=28	=28	=28	=28	=28	=28	=28	=28	=28	=28	=28	=28	=28	=28	=28
16B-/LL	.	16ee-\LL	.	4.BB-/	-ter-	.	2d\	-e-	2a-\	-e-	2dd\	-e-	.	8BB-/L	.	.	2B-/	2f\	8r	8r
16f/JJ	.	16dd\	.	.	.	.	.	.	.	.	.	.	.	.	.	.	.	.	.	.
16B-/LL	.	16cc\	.	.	.	.	.	.	.	.	.	.	.	8BB-/	.	.	.	.	8b-/	8gg\
16f/JJ	.	16dd\JJ	.	.	.	.	.	.	.	.	.	.	.	.	.	.	.	.	.	.
16B-/LL	.	8.ff\L	.	.	.	.	.	.	.	.	.	.	.	8BB-/	.	.	.	.	4b-/	4gg\
16f/JJ	.	.	.	.	.	.	.	.	.	.	.	.	.	.	.	.	.	.	.	.
16B-/LL	.	.	.	8D\	.	.	.	.	.	.	.	.	.	8D/J	.	.	.	.	.	.
16f/JJ	.	16b-\Jk	.	.	.	.	.	.	.	.	.	.	.	.	.	.	.	.	.	.
*Xtremolo	*	*	*	*	*	*	*	*	*	*	*	*	*	*	*	*	*	*	*	*
8.B-/L	.	16g/LL	.	4E-\	.	.	4c\	-ter-	4g\	-ter-	8.g\L	-ter-	.	4E-\	.	.	4r	4r	8r	8r
.	.	16gm/	.	.	.	.	.	.	.	.	.	.	.	.	.	.	.	.	.	.
.	.	16ee-\	.	.	.	.	.	.	.	.	.	.	.	.	.	.	.	.	8a-/L	8ff\L
16e-/Jk	.	16cc\JJ	.	.	.	.	.	.	.	.	16b-\Jk	.	.	.	.	.	.	.	.	.
!	!	!	!	!LO:TX:t=P:problem:mixed beam	!	!	!	!	!	!	!	!	!	!LO:TX:t=P:problem:mixed beam	!	!	!	!	!	!
.	.	8qqcc/	.	.	.	.	.	.	.	.	.	.	.	.	.	.	.	.	.	.
8d/L	.	8b-\L	.	8F\L	-nam	.	4f\	.	8f\L	.	8b-\	.	.	8F\L	6 4	.	8f\L	8f\L	8g/	8ee-\
.	.	8qqb-/	.	.	.	.	.	.	.	.	.	.	.	.	.	.	.	.	.	.
8c/J	.	8a-\J	.	8FF/J	.	.	.	.	8e-\J	.	8an\	-nam	.	8FF/J	5 n	.	8f\J	8f\J	8f/J	8dd\J
=29	=29	=29	=29	=29	=29	=29	=29	=29	=29	=29	=29	=29	=29	=29	=29	=29	=29	=29	=29	=29
!	!	!	!	!	!	!	!	!	!	!	!	!	!	!	!	!	!	!	!LO:TX:a:i:t=ſolo	!
!	!	!LO:TX:t=P:problem:mixed beam	!	!LO:TX:t=P:problem:mixed beam	!	!	!	!	!	!	!	!	!	!LO:TX:b:i:t=Violone	!	!LO:DY:a	!	!	!LO:TX:t=P:problem:mixed beam	!LO:TX:a:i:t=ſolo
!	!LO:DY:b:t=po.	!	!LO:DY:b:t=piano	!	!	!	!	!	!	!	!	!	!	!	!	!	!	!	!	!
!	!	!	!	!	!	!	!	!	!	!	!	!	!	!	!	!LO:DY:b:t=pia	!	!	!	!
16d/LL	p	8b-\L	p	16BB-/LL	do-	ſolo	8f\	-nam	8f\	-nam	16b-\LL	do-	ſolo	8BB-/L	.	p	8B-/	8f\	16g/LL	16ee-\LL
16B-/J	.	.	.	16B-\JJ	.	.	.	.	.	.	16cc\JJ	.	.	.	.	.	.	.	16ee-\J	16gg\J
8B-/J	.	8d/J	.	8B-\	-na	.	8r	.	8r	.	8dd\	-na	.	8BB-/	.	.	8r	8r	8ee-\J	8gg\J
16B-/LL	.	16d/LL	.	16B-\LL	do-	.	4r	.	4r	.	16dd\LL	do-	.	8BB-/	.	.	4r	4r	16ee-\LL	16gg\LL
16An/	.	16c/	.	16An\JJ	.	.	.	.	.	.	16cc\	.	.	.	.	.	.	.	16dd\	16ff\
16B-/	.	16d/	.	16B-\LL	-na	.	.	.	.	.	16dd\	.	.	8BB-/J	.	.	.	.	16ee-\	16gg\
16c/JJ	.	16e-/JJ	.	16c\JJ	.	.	.	.	.	.	16ee-\JJ	.	.	.	.	.	.	.	16ff\JJ	16aa-\JJ
8.d/L	.	8.f/L	.	8.d\L	.	.	2r	.	2r	.	8.ff\L	-na	.	8BB-/L	.	.	2r	2r	8.gg\L	8.bb-\L
!	!	!	!	!	!	!	!	!	!	!	!	!	!	!	!	!	!LO:LB:g=original	!	!	!
.	.	.	.	.	.	.	.	.	.	.	.	.	.	8BB-/	.	.	.	.	.	.
32e-/LL	.	32g/LL	.	32e-\LL	e-	.	.	.	.	.	32bb-\LL	e-	.	.	.	.	.	.	32aa-\LL	32ccc\LL
32d/JJJ	.	32f/JJJ	.	32d\JJJ	.	.	.	.	.	.	32aa-\JJJ	.	.	.	.	.	.	.	32gg\JJJ	32bb-\JJJ
8c/L	.	8e-/L	.	8c\L	.	.	.	.	.	.	8ee-\	.	.	8BB-/	.	.	.	.	8ff\L	8aa-\L
8B-/J	.	8d/J	.	8B-\J	-is	.	.	.	.	.	8dd\	-is	.	8BB-/J	.	.	.	.	8ee-\J	8gg\J
!	!	!LO:LB:g=original	!	!	!	!	!	!	!	!	!LO:LB:g=original	!	!	!	!	!	!	!	!LO:LB:g=original	!
=30	=30	=30	=30	=30	=30	=30	=30	=30	=30	=30	=30	=30	=30	=30	=30	=30	=30	=30	=30	=30
8qqB-/	.	8qqd/	.	8qqB-/	.	.	.	.	.	.	8qqdd/	.	.	.	.	.	.	.	8qqee-/	8qqgg/
8An/L	.	8c/L	.	8An\	do-	.	1r	.	1r	.	8cc\	do-	.	8F\L	.	.	1r	1r	8dd\L	8ff\L
8A/J	.	8c/J	.	8A\	-na	.	.	.	.	.	8cc\	-na	.	8F\	.	.	.	.	8dd\J	8ff\J
16A/LL	.	16c/LL	.	16A\LL	do-	.	.	.	.	.	16cc\LL	do-	.	8F\	.	.	.	.	16dd\LL	16ff\LL
16G/	.	16B-/	.	16G\JJ	.	.	.	.	.	.	16b-\	.	.	.	.	.	.	.	16cc\	16ee-\
16A/	.	16c/	.	16A\LL	-na	.	.	.	.	.	16cc\	-na	.	8F\J	.	.	.	.	16dd\	16ff\
16B-/JJ	.	16d/JJ	.	16B-\JJ	.	.	.	.	.	.	16dd\JJ	.	.	.	.	.	.	.	16ee-\JJ	16gg\JJ
!	!	!	!	!LO:LB:g=original	!	!	!	!	!	!	!	!	!	!	!	!	!	!	!	!
8.c/L	.	8.e-/L	.	8.c\L	e-	.	.	.	.	.	8.ee-\L	e-	.	8F\L	.	.	.	.	8.ff\L	8.aa-\L
.	.	.	.	.	.	.	.	.	.	.	.	.	.	8F\	.	.	.	.	.	.
32d/LL	.	32f/LL	.	32d\LL	.	.	.	.	.	.	32ff\LL	.	.	.	.	.	.	.	32gg\LL	32bb-\LL
32c/JJJ	.	32e-/JJJ	.	32c\JJJ	.	.	.	.	.	.	32ee-\JJJ	.	.	.	.	.	.	.	32ff\JJJ	32aa-\JJJ
8B-/L	.	8d/L	.	8B-\	.	.	.	.	.	.	8dd\	.	.	8F\	.	.	.	.	8ee-\L	8gg\L
8A/J	.	8c/J	.	8An\	-is	.	.	.	.	.	8cc\	-is	.	8F\J	.	.	.	.	8dd\J	8ff\J
!	!	!	!	!	!	!	!	!	!	!	!	!	!	!	!	!	!	!	!	!LO:LB:g=original
=31	=31	=31	=31	=31	=31	=31	=31	=31	=31	=31	=31	=31	=31	=31	=31	=31	=31	=31	=31	=31
!	!	!	!	!	!	!	!	!	!	!	!	!	!	!LO:TX:t=P:problem:mixed beam	!	!	!	!	!	!
16B-/LL	.	16d/LL	.	16B-\LL	do-	.	1r	.	1r	.	16dd\LL	do-	.	8BB-/L	.	.	1r	1r	16ee-\LL	16gg\LL
16An/J	.	16c/J	.	16An\JJ	.	.	.	.	.	.	16cc\J	.	.	.	.	.	.	.	16dd\J	16ff\J
8B-/J	.	8d/J	.	8B-\	-na	.	.	.	.	.	8dd\J	-na	.	8BB-/	.	.	.	.	8ee-\J	8gg\J
16r	.	16r	.	16r	.	.	.	.	.	.	16r	.	.	8F\	.	.	.	.	16r	16r
16A/LL	.	16c/LL	.	16A\LL	do-	.	.	.	.	.	16cc\LL	e-	.	.	.	.	.	.	16dd\LL	16ff\LL
16B-/	.	16d/	.	16B-\JJ	.	.	.	.	.	.	16dd\JJ	.	.	8F\J	.	.	.	.	16ee-\	16gg\
16c/JJ	.	16e-/JJ	.	16c\	-na	.	.	.	.	.	16ee-\	-is	.	.	.	.	.	.	16ff\JJ	16aa-\JJ
!LO:LB:g=original	!	!	!	!	!	!	!	!	!	!	!	!	!	!LO:TX:t=P:problem:mixed beam	!	!	!	!	!	!
16B-/LL	.	16d/LL	.	16B-\LL	e-	.	.	.	.	.	16dd\LL	do-	.	8BB-/L	.	.	.	.	16ee-\LL	16gg\LL
16A/J	.	16c/J	.	16A\JJ	.	.	.	.	.	.	16cc\JJ	.	.	.	.	.	.	.	16dd\J	16ff\J
8B-/J	.	8d/J	.	8B-\	-is	.	.	.	.	.	8dd\	-na	.	8BB-/	.	.	.	.	8ee-\J	8gg\J
16r	.	16r	.	16r	.	.	.	.	.	.	16r	.	.	8F\	.	.	.	.	16r	16r
16A/LL	.	16c/LL	.	16A\LL	do-	.	.	.	.	.	16cc\LL	e-	.	.	.	.	.	.	16dd\LL	16ff\LL
16B-/	.	16d/	.	16B-\JJ	.	.	.	.	.	.	16dd\JJ	.	.	8F\J	.	.	.	.	16ee-\	16gg\
16c/JJ	.	16e-/JJ	.	16c\	-na	.	.	.	.	.	16ee-\	-is	.	.	.	.	.	.	16ff\JJ	16aa-\JJ
=32	=32	=32	=32	=32	=32	=32	=32	=32	=32	=32	=32	=32	=32	=32	=32	=32	=32	=32	=32	=32
16B-/LL	.	16d|/LL	.	16B-\LL	e-	.	1r	.	1r	.	16dd\LL	e-	.	4BB-/	.	.	1r	1r	16ee-\LL	16gg\LL
16d/	.	16f|/	.	16d\JJ	.	.	.	.	.	.	16ff\JJ	.	.	.	.	.	.	.	16gg\J	16bb-\J
16d/	.	16f|/	.	8d\	-is	.	.	.	.	.	8ff\	-is	.	.	.	.	.	.	8gg\J	8bb-\J
16d/JJ	.	16f|/JJ	.	.	.	.	.	.	.	.	.	.	.	.	.	.	.	.	.	.
16d/LL	.	(16f/LL	.	16d\LL	do-	.	.	.	.	.	16ff\LL	do-	.	8AAn/L	.	.	.	.	16gg\LL	16bb-\LL
16c/	.	16e-/)	.	16c\JJ	.	.	.	.	.	.	16ee-\JJ	.	.	.	.	.	.	.	16ff\	16aa-\
16c/	.	(16e-/	.	16c\LL	-mi-	.	.	.	.	.	16ee-\LL	-mi-	.	8BB-/J	.	.	.	.	16ff\	16aa-\
16B-/JJ	.	16d/JJ)	.	16B-\JJ	.	.	.	.	.	.	16dd\JJ	.	.	.	.	.	.	.	16ee-\JJ	16gg\JJ
4B-/	.	4d/	.	4B-\	-ne	.	.	.	.	.	(4dd\	-ne	.	16BB-/LL	.	.	.	.	4ee-\	4gg\
.	.	.	.	.	.	.	.	.	.	.	.	.	.	16C/	.	.	.	.	.	.
.	.	.	.	.	.	.	.	.	.	.	.	.	.	16D/	.	.	.	.	.	.
.	.	.	.	.	.	.	.	.	.	.	.	.	.	16E-/JJ	.	.	.	.	.	.
!	!	!	!	!	!	!	!	!	!	!	!	!	!	!LO:TX:t=P:problem:mixed beam	!	!	!	!	!	!
4An/	.	4c/	.	4An\	.	.	.	.	.	.	4cc\)	.	.	8F\L	.	.	.	.	4dd\	4ff\
.	.	.	.	.	.	.	.	.	.	.	.	.	.	8FF/J	.	.	.	.	.	.
=33	=33	=33	=33	=33	=33	=33	=33	=33	=33	=33	=33	=33	=33	=33	=33	=33	=33	=33	=33	=33
.	.	.	.	8qqE-/	.	.	.	.	.	.	.	.	.	.	.	.	.	.	.	.
!	!	!	!	!	!	!	!	!	!	!	!	!	!	!	!	!	!	!	!LO:TX:t=P:problem:mixed beam	!
8B-/L	.	8d/L	.	8B-\	do-	.	1r	.	1r	.	16b-\LL	do-	.	8BB-/L	.	.	1r	1r	16g/LL	16ee-\LL
.	.	.	.	.	.	.	.	.	.	.	16dd\JJ	.	.	.	.	.	.	.	16ee-\J	16gg\J
8B-/J	.	8d/J	.	8B-\	-na	.	.	.	.	.	8dd\	-na	.	8BB-/	.	.	.	.	8ee-\J	8gg\J
16B-/LL	.	16d/LL	.	16B-\LL	do-	.	.	.	.	.	16dd\LL	do-	.	8BB-/	.	.	.	.	16ee-\LL	16gg\LL
16An/	.	16c/	.	16An\JJ	.	.	.	.	.	.	16cc\JJ	.	.	.	.	.	.	.	16dd\	16ff\
16B-/	.	16d/	.	16B-\LL	-na	.	.	.	.	.	16dd\LL	-na	.	8BB-/J	.	.	.	.	16ee-\	16gg\
16c/JJ	.	16e-/JJ	.	16c\JJ	.	.	.	.	.	.	16ee-\JJ	.	.	.	.	.	.	.	16ff\JJ	16aa-\JJ
!	!	!	!	!LO:LB:g=original	!	!	!	!	!	!	!LO:LB:g=original	!	!	!	!	!	!	!	!	!
8.d/L	.	8.f/L	.	8.d\L	e-	.	.	.	.	.	8.ff\L	e-	.	8BB-/L	.	.	.	.	8.gg\L	8.bb-\L
.	.	.	.	.	.	.	.	.	.	.	.	.	.	8BB-/	.	.	.	.	.	.
32e-/LL	.	32g/LL	.	32e-\LL	.	.	.	.	.	.	32gg\LL	.	.	.	.	.	.	.	32aa-\LL	32ccc\LL
32d/JJJ	.	32f/JJJ	.	32d\JJJ	.	.	.	.	.	.	32ff\JJJ	.	.	.	.	.	.	.	32gg\JJJ	32bb-\JJJ
8c/L	.	8e-/L	.	8c\L	.	.	.	.	.	.	8ee-\	.	.	8BB-/	.	.	.	.	8ff\L	8aa-\L
8B-/J	.	8d/J	.	8B-\J	-is	.	.	.	.	.	8dd\	-is	.	8BB-/J	.	.	.	.	8ee-\J	8gg\J
=34	=34	=34	=34	=34	=34	=34	=34	=34	=34	=34	=34	=34	=34	=34	=34	=34	=34	=34	=34	=34
8qqB-/	.	8qqd/	.	8qqB-/	.	.	.	.	.	.	8qqdd/	.	.	.	.	.	.	.	8qqee-/	8qqgg/
8An/L	.	8c/L	.	8An\	do-	.	1r	.	1r	.	8cc\	do-	.	8F\L	.	.	1r	1r	8dd\L	8ff\L
8A/J	.	8c/J	.	8A\	-na	.	.	.	.	.	8cc\	-na	.	8F\	.	.	.	.	8dd\J	8ff\J
16A/LL	.	16c/LL	.	16A\LL	do-	.	.	.	.	.	16cc\LL	do-	.	8F\	.	.	.	.	16dd\LL	16ff\LL
16G/	.	16B-/	.	16G\JJ	.	.	.	.	.	.	16b-\	.	.	.	.	.	.	.	16cc\	16ee-\
16A/	.	16c/	.	16A\LL	-na	.	.	.	.	.	16cc\	-na	.	8F\J	.	.	.	.	16dd\	16ff\
16B-/JJ	.	16d/JJ	.	16B-\JJ	.	.	.	.	.	.	16dd\JJ	.	.	.	.	.	.	.	16ee-\JJ	16gg\JJ
!	!	!	!	!	!	!	!	!	!	!	!	!	!	!	!	!	!	!	!LO:LB:g=original	!
8.c/L	.	8.e-/L	.	8.c\L	e-	.	.	.	.	.	8.ee-\L	e-	.	8F\L	.	.	.	.	8.ff\L	8.aa-\L
.	.	.	.	.	.	.	.	.	.	.	.	.	.	8F\	.	.	.	.	.	.
32d/LL	.	32f/LL	.	32d\LL	.	.	.	.	.	.	32ff\LL	.	.	.	.	.	.	.	32gg\LL	32bb-\LL
32c/JJJ	.	32e-/JJJ	.	32c\JJJ	.	.	.	.	.	.	32ee-\JJJ	.	.	.	.	.	.	.	32ff\JJJ	32aa-\JJJ
8B-/L	.	8d/L	.	8B-\	.	.	.	.	.	.	8dd\	.	.	8F\	.	.	.	.	8ee-\L	8gg\L
8A/J	.	8c/J	.	8A\	-is	.	.	.	.	.	8cc\	-is	.	8F\J	.	.	.	.	8dd\J	8ff\J
!	!	!	!	!	!	!	!	!	!	!	!	!	!	!LO:LB:g=original	!	!	!	!	!	!
!	!	!LO:LB:g=original	!	!	!	!	!	!	!	!	!	!	!	!	!	!	!	!	!	!
=35	=35	=35	=35	=35	=35	=35	=35	=35	=35	=35	=35	=35	=35	=35	=35	=35	=35	=35	=35	=35
16B-/LL	.	16d/LL	.	16B-\LL	do-	.	1r	.	1r	.	16dd\LL	do-	.	8BB-/L	.	.	1r	1r	16ee-\LL	16gg\LL
!	!	!	!	!	!	!	!LO:LB:g=original	!	!	!	!	!	!	!	!	!	!	!	!	!
16An/J	.	16c/J	.	16A-\JJ	.	.	.	.	.	.	16cc\JJ	.	.	.	.	.	.	.	16dd\J	16ff\J
8B-/J	.	8d/J	.	8B-\	-na	.	.	.	.	.	8dd\	-na	.	8BB-/	.	.	.	.	8ee-\J	8gg\J
16r	.	16r	.	16r	.	.	.	.	.	.	16r	.	.	8FF/	.	.	.	.	16r	16r
16A/LL	.	16c/LL	.	16An\LL	do-	.	.	.	.	.	16cc\LL	do-	.	.	.	.	.	.	16dd\LL	16ff\LL
16B-/	.	16d/	.	16B-\JJ	.	.	.	.	.	.	16dd\JJ	.	.	8FF/J	.	.	.	.	16ee-\	16gg\
16c/JJ	.	16e-/JJ	.	16c\	-na	.	.	.	.	.	16ee-\	-na	.	.	.	.	.	.	16ff\JJ	16aa-\JJ
!LO:LB:g=original	!	!	!	!	!	!	!	!	!	!	!	!	!	!	!	!	!	!	!	!
16B-/LL	.	16d/LL	.	16B-\LL	e-	.	.	.	.	.	16dd\LL	e-	.	8BB-/L	.	.	.	.	16ee-\LL	16gg\LL
16A/J	.	16c/J	.	16A\JJ	.	.	.	.	.	.	16cc\JJ	.	.	.	.	.	.	.	16dd\J	16ff\J
8B-/J	.	8d/J	.	8B-\	-is	.	.	.	.	.	8dd\	-is	.	8BB-/	.	.	.	.	8ee-\J	8gg\J
16r	.	16r	.	16r	.	.	.	.	.	.	16r	.	.	8FF/	.	.	.	.	16r	16r
16A/LL	.	16c/LL	.	16A\LL	do-	.	.	.	.	.	16cc\LL	do-	.	.	.	.	.	.	16dd\LL	16ff\LL
16B-/	.	16d/	.	16B-\JJ	.	.	.	.	.	.	16dd\JJ	.	.	8FF/J	.	.	.	.	16ee-\	16gg\
16c/JJ	.	16e-/JJ	.	16c\	-na	.	.	.	.	.	16ee-\	-na	.	.	.	.	.	.	16ff\JJ	16aa-\JJ
!	!	!	!	!	!	!	!	!	!	!	!	!	!	!	!	!	!	!	!	!LO:LB:g=original
=36	=36	=36	=36	=36	=36	=36	=36	=36	=36	=36	=36	=36	=36	=36	=36	=36	=36	=36	=36	=36
!LO:TX:t=P:problem:klamra łukowa, kropka zamiast numeru	!	!LO:TX:t=P:problem:klamra łukowa, kropka zamiast numeru	!	!LO:TX:t=P:problem:klamra łukowa, kropka zamiast numeru	!	!	!	!	!	!	!LO:TX:t=P:problem:klamra łukowa, kropka zamiast numeru	!	!	!LO:TX:t=P:problem:mixed beam	!	!	!	!	!LO:TX:t=P:problem:klamra łukowa, kropka zamiast numeru	!LO:TX:t=P:problem:klamra łukowa, kropka zamiast numeru
24B-/LL	.	24d/LL	.	24B-\LL	e-	.	2r	.	2r	.	24dd\LL	e-	.	8BB-/L	.	.	2r	2r	24ee-\LL	24gg\LL
24c/	.	24e-/	.	24c\	.	.	.	.	.	.	24ee-\	.	.	.	.	.	.	.	24ff\	24aa-\
24d/JJ	.	24f/JJ	.	24d\JJ	.	.	.	.	.	.	24ff\JJ	.	.	.	.	.	.	.	24gg\JJ	24bb-\JJ
!LO:TX:t=P:problem:klamra łukowa, kropka zamiast numeru	!	!LO:TX:t=P:problem:klamra łukowa, kropka zamiast numeru	!	!LO:TX:t=P:problem:klamra łukowa, kropka zamiast numeru	!	!	!	!	!	!	!LO:TX:t=P:problem:klamra łukowa, kropka zamiast numeru	!	!	!	!	!	!	!	!LO:TX:t=P:problem:klamra łukowa, kropka zamiast numeru	!LO:TX:t=P:problem:klamra łukowa, kropka zamiast numeru
24e-/LL	.	24g/LL	.	24e-\LL	-is	.	.	.	.	.	24gg\LL	-is	.	8E-/	.	.	.	.	24aa-\LL	24ccc\LL
24d/	.	24f/	.	24d\	.	.	.	.	.	.	24ff\	.	.	.	.	.	.	.	24gg\	24bb-\
24c/JJ	.	24e-/JJ	.	24c\JJ	.	.	.	.	.	.	24ee-\JJ	.	.	.	.	.	.	.	24ff\JJ	24aa-\JJ
8B-/L	.	8d/L	.	8B-\	do-	.	.	.	.	.	8dd\	do-	.	8F/	.	.	.	.	8ee-\L	8gg\L
8An/J	.	8c/J	.	8F\	-mi-	.	.	.	.	.	8cc\	-mi-	.	8FF/J	.	.	.	.	8dd\J	8ff\J
!	!	!	!	!LO:LB:g=original	!	!	!	!	!	!	!LO:LB:g=original	!	!	!	!	!	!	!	!	!
!	!	!LO:TX:a:i:t=T&colon;	!	!	!	!	!	!	!	!	!	!	!	!	!	!	!	!	!	!
!LO:TX:a:i:t=T&colon;	!	!	!LO:DY:b:t=for	!	!	!	!	!	!	!	!	!	!	!	!	!	!	!	!	!
16B-/LL	.	24dd\LL	f	4BB-/	-ne	.	4r	.	4r	.	4b-\	-ne	.	8BB-/L	.	.	4r	4r	4ee-\	4gg\
.	.	24cc\	.	.	.	.	.	.	.	.	.	.	.	.	.	.	.	.	.	.
16f/	.	.	.	.	.	.	.	.	.	.	.	.	.	.	.	.	.	.	.	.
.	.	24b-\J	.	.	.	.	.	.	.	.	.	.	.	.	.	.	.	.	.	.
16d/	.	8b-\J	.	.	.	.	.	.	.	.	.	.	.	8D/	.	.	.	.	.	.
16f/JJ	.	.	.	.	.	.	.	.	.	.	.	.	.	.	.	.	.	.	.	.
!	!	!LO:TX:t=P:problem:klamra łukowa, kropka zamiast numeru	!	!	!	!	!	!	!	!	!	!	!	!	!	!	!	!	!	!
16A/LL	.	24an\LL	.	8r	.	.	8r	.	8r	.	8r	.	.	8FF/	.	.	8r	8r	8r	8r
.	.	24cc\	.	.	.	.	.	.	.	.	.	.	.	.	.	.	.	.	.	.
16f/	.	.	.	.	.	.	.	.	.	.	.	.	.	.	.	.	.	.	.	.
.	.	24ee-\JJ	.	.	.	.	.	.	.	.	.	.	.	.	.	.	.	.	.	.
!	!	!LO:TX:t=P:problem:klamra łukowa, kropka zamiast numeru	!	!	!	!	!	!	!	!	!	!	!	!	!	!	!	!	!LO:TX:a:i:t=Tutti	!LO:TX:a:i:t=Tutti
16c/	.	24gg\LL	.	8An\	et	.	8f\	et	8ee-\	et	8ee-\	et	.	8AAn/J	.	.	8f\	8f\	8ff\	8aa-\
.	.	24ff\	.	.	.	.	.	.	.	.	.	.	.	.	.	.	.	.	.	.
16f/JJ	.	.	.	.	.	.	.	.	.	.	.	.	.	.	.	.	.	.	.	.
.	.	24ee-\JJ	.	.	.	.	.	.	.	.	.	.	.	.	.	.	.	.	.	.
=37	=37	=37	=37	=37	=37	=37	=37	=37	=37	=37	=37	=37	=37	=37	=37	=37	=37	=37	=37	=37
.	.	8qqee-/	.	.	.	.	.	.	.	.	.	.	.	.	.	.	.	.	.	.
16B-/LL	.	16dd\LL	.	4B-\	lux	.	4f\	lux	4dd\	lux	4dd\	lux	.	8BB-/L	.	.	4B-/	4f\	4ee-\	4gg\
16f/	.	32cc\L	.	.	.	.	.	.	.	.	.	.	.	.	.	.	.	.	.	.
.	.	32b-\JJ	.	.	.	.	.	.	.	.	.	.	.	.	.	.	.	.	.	.
16d/	.	8b-\J	.	.	.	.	.	.	.	.	.	.	.	8D/	.	.	.	.	.	.
16f/JJ	.	.	.	.	.	.	.	.	.	.	.	.	.	.	.	.	.	.	.	.
!	!	!LO:TX:t=P:problem:klamra łukowa, kropka zamiast numeru	!	!	!	!	!	!	!	!	!	!	!	!	!	!	!	!	!	!
16An/LL	.	24an\LL	.	8r	.	.	8r	.	8r	.	8r	.	.	8FF/	.	.	8r	8r	8r	8r
.	.	24cc\	.	.	.	.	.	.	.	.	.	.	.	.	.	.	.	.	.	.
16f/	.	.	.	.	.	.	.	.	.	.	.	.	.	.	.	.	.	.	.	.
.	.	24ee-\JJ	.	.	.	.	.	.	.	.	.	.	.	.	.	.	.	.	.	.
!	!	!LO:TX:t=P:problem:klamra łukowa, kropka zamiast numeru	!	!	!	!	!	!	!	!	!	!	!	!	!	!	!	!	!	!
16c/	.	24gg\LL	.	8An\	et	.	8f\	et	8ee-\	et	8ee-\	et	.	8AAn/J	.	.	8f\	8f\	8ff\	8aa-\
.	.	24ff\	.	.	.	.	.	.	.	.	.	.	.	.	.	.	.	.	.	.
16f/JJ	.	.	.	.	.	.	.	.	.	.	.	.	.	.	.	.	.	.	.	.
.	.	24ee-\JJ	.	.	.	.	.	.	.	.	.	.	.	.	.	.	.	.	.	.
.	.	8qqee-/	.	.	.	.	.	.	.	.	.	.	.	.	.	.	.	.	.	.
16B-/LL	.	16dd\LL	.	4B-\	lux	.	4f\	lux	4dd\	lux	4dd\	lux	.	8BB-/L	.	.	4B-/	4f\	4ee-\	4gg\
16f/	.	32cc\L	.	.	.	.	.	.	.	.	.	.	.	.	.	.	.	.	.	.
.	.	32b-\JJ	.	.	.	.	.	.	.	.	.	.	.	.	.	.	.	.	.	.
16d/	.	8b-\J	.	.	.	.	.	.	.	.	.	.	.	8BB-/	.	.	.	.	.	.
16f/JJ	.	.	.	.	.	.	.	.	.	.	.	.	.	.	.	.	.	.	.	.
!LO:TX:t=P:problem:mixed beam	!	!	!	!	!	!	!	!	!	!	!	!	!	!	!	!	!	!	!	!
16B-/KL	.	(32bb-\LLL	.	8r	.	.	8r	.	8r	.	8r	.	.	8D/	6	.	4r	4r	8r	8r
!	!	!	!	!	!	!	!	!	!	!	!	!	!	!	!	!	!	!LO:LB:g=original	!	!
.	.	32aan\	.	.	.	.	.	.	.	.	.	.	.	.	.	.	.	.	.	.
8b-\	.	32bb-\	.	.	.	.	.	.	.	.	.	.	.	.	.	.	.	.	.	.
.	.	32aa\J)	.	.	.	.	.	.	.	.	.	.	.	.	.	.	.	.	.	.
.	.	16bb-|\	.	8D\	per-	.	8f\	per-	8dd\	per-	8dd\	per-	.	8D/J	.	.	.	.	8ee-\	8gg\
!	!	!	!	!	!	!	!	!	!LO:LB:g=original	!	!	!	!	!	!	!	!	!	!	!
16b-\Jk	.	16dd|\JJ	.	.	.	.	.	.	.	.	.	.	.	.	.	.	.	.	.	.
=38	=38	=38	=38	=38	=38	=38	=38	=38	=38	=38	=38	=38	=38	=38	=38	=38	=38	=38	=38	=38
16b-\KL	.	16dd\LL	.	8E-\	-pe-	.	16.B-\	-pe-	16.b-\	-pe-	16.cc\	-pe-	.	8E-\L	6 3	.	1r	1r	[4ee-\	4.ff\
8b-\	.	16cc\	.	.	.	.	.	.	.	.	.	.	.	.	.	.	.	.	.	.
.	.	.	.	.	.	.	32B-\	-tu-	32b-\	-tu-	32cc\	-tu-	.	.	.	.	.	.	.	.
.	.	16cc\	.	16E-\LL	-tu-	.	8B-\	-a	8b-\	-a	8cc\	-a	.	16E-\L	3	.	.	.	.	.
16b-\Jk	.	16dd\JJ	.	16F\JJ	.	.	.	.	.	.	.	.	.	16F\JJ	n	.	.	.	.	.
8b-\L	.	(32ee-\LLL	.	8G\	-a	.	8r	.	8r	.	8r	.	.	8G\L	3	.	.	.	8ee-\L]	.
.	.	32dd\	.	.	.	.	.	.	.	.	.	.	.	.	.	.	.	.	.	.
.	.	32ee-\	.	.	.	.	.	.	.	.	.	.	.	.	.	.	.	.	.	.
.	.	32gg\J)	.	.	.	.	.	.	.	.	.	.	.	.	.	.	.	.	.	.
16an\L	.	16ff|\	.	8An\	lu-	.	8f\	lu-	8ee-\	lu-	8ee-\	lu-	.	8An\J	5	.	.	.	16dd\L	8aa-\
16f\JJ	.	16ee-|\JJ	.	.	.	.	.	.	.	.	.	.	.	.	.	.	.	.	16ff\JJ	.
!	!	!LO:LB:g=original	!	!	!	!	!	!	!	!	!	!	!	!LO:TX:t=P:problem:mixed beam	!	!	!	!	!	!
16f/KL	.	16ee-\LL	.	8B-\	-ce-	.	8f\	-ce-	16ee-\LL	-ce-	16ee-\LL	-ce-	.	8B-\L	.	.	.	.	16ff\LL	16aa-\LL
8f/	.	16dd\J	.	.	.	.	.	.	16dd\JJ	.	16dd\JJ	.	.	.	.	.	.	.	16ee-\J	16gg\J
.	.	8dd\J	.	8BB-/	-at	.	8f\	-at	8dd\	-at	8dd\	-at	.	8BB-/	.	.	.	.	8ee-\J	8gg\J
16f/L	.	.	.	.	.	.	.	.	.	.	.	.	.	.	.	.	.	.	.	.
16b-/J	.	(32bb-\LLL	.	8r	.	.	8r	.	8r	.	8r	.	.	8D\	6	.	.	.	8r	8r
.	.	32aa-\	.	.	.	.	.	.	.	.	.	.	.	.	.	.	.	.	.	.
8b-/	.	32bb-\	.	.	.	.	.	.	.	.	.	.	.	.	.	.	.	.	.	.
.	.	32aa-\J)	.	.	.	.	.	.	.	.	.	.	.	.	.	.	.	.	.	.
.	.	16bb-|\	.	8E-\	lu-	.	8B-\	lu-	8a-\	lu-	8dd\	lu-	.	8D\J	.	.	.	.	8ee-\	8gg\
!	!	!	!	!	!	!	!	!	!	!	!	!	!	!	!	!	!	!	!LO:LB:g=original	!
16b-/Jk	.	16dd|\JJ	.	.	.	.	.	.	.	.	.	.	.	.	.	.	.	.	.	.
!LO:LB:g=original	!	!	!	!	!	!	!	!	!	!	!	!	!	!	!	!	!	!	!	!
=39	=39	=39	=39	=39	=39	=39	=39	=39	=39	=39	=39	=39	=39	=39	=39	=39	=39	=39	=39	=39
!	!	!	!	!	!	!	!	!	!	!	!	!	!	!LO:TX:t=P:problem:mixed beam	!	!	!	!	!	!
16cc\LL	.	16dd\LL	.	8E-\	-ce-	.	8B-\	-ce-	8b-\	-ce-	8cc\	-ce-	.	8E-\L	6	.	4r	4r	4.ee-\	2ff\
16an\JJ	.	16cc\	.	.	.	.	.	.	.	.	.	.	.	.	.	.	.	.	.	.
16a\LL	.	16cc\	.	8E-\	-at	.	8B-\	-at	8b-\	-at	8cc\	-at	.	8E-\	.	.	.	.	.	.
32cc\L	.	32ee-\L	.	.	.	.	.	.	.	.	.	.	.	.	.	.	.	.	.	.
32ee-\JJJ	.	32gg\JJJ	.	.	.	.	.	.	.	.	.	.	.	.	.	.	.	.	.	.
!	!	!	!	!LO:TX:t=P:problem:mixed beam	!	!	!	!	!	!	!	!	!	!	!	!	!	!	!	!
.	.	8qgg/	.	.	.	.	.	.	.	.	.	.	.	.	.	.	.	.	.	.
!	!LO:DY:a	!	!	!	!	!	!	!	!	!	!	!	!	!	!	!	!	!	!	!
16dd\LL	f	16ff\LL	.	8E-/L	e-	.	8B-\L	e-	4a-\	e-	4cc\	e-	.	8F\	4	.	8f\L	8f\L	.	.
32cc\L	.	32ee-\L	.	.	.	.	.	.	.	.	.	.	.	.	.	.	.	.	.	.
32b-\JJJ	.	32dd\JJJ	.	.	.	.	.	.	.	.	.	.	.	.	.	.	.	.	.	.
8qqf/	.	8qdd/	.	.	.	.	.	.	.	.	.	.	.	.	.	.	.	.	.	.
16e-/LL	.	16cc\LL	.	8FF\J	.	.	8An\J	.	.	.	.	.	.	8FF/J	3	.	8f\J	8f\J	8dd\	.
32d/L	.	32b-\L	.	.	.	.	.	.	.	.	.	.	.	.	.	.	.	.	.	.
32c/JJJ	.	32an\JJJ	.	.	.	.	.	.	.	.	.	.	.	.	.	.	.	.	.	.
8d/	.	8.b-\L	.	4BB-/	-is	.	4B-\	-is	4a-\	-is	4dd\	-is	.	4BB-/	.	.	4B-/	4f\	4ee-\	4ee-\
8r	.	.	.	.	.	.	.	.	.	.	.	.	.	.	.	.	.	.	.	.
.	.	16cc\Jk	.	.	.	.	.	.	.	.	.	.	.	.	.	.	.	.	.	.
4r	.	16dd\LL	.	4r	.	.	4r	.	4r	.	4r	.	.	4r	.	.	4r	4r	4r	4r
.	.	16ee-\	.	.	.	.	.	.	.	.	.	.	.	.	.	.	.	.	.	.
.	.	16ff\	.	.	.	.	.	.	.	.	.	.	.	.	.	.	.	.	.	.
.	.	32gg\L	.	.	.	.	.	.	.	.	.	.	.	.	.	.	.	.	.	.
.	.	32aa-X\JJJ	.	.	.	.	.	.	.	.	.	.	.	.	.	.	.	.	.	.
=40	=40	=40	=40	=40	=40	=40	=40	=40	=40	=40	=40	=40	=40	=40	=40	=40	=40	=40	=40	=40
.	.	8qqgg/	.	.	.	.	.	.	.	.	.	.	.	.	.	.	.	.	.	.
8r	.	8gg\L	.	1r	.	.	1r	.	1r	.	1r	.	.	8r	.	.	1r	1r	1r	1r
!	!	!	!	!LO:LB:g=original	!	!	!LO:LB:g=original	!	!	!	!	!	!	!	!	!	!	!	!	!
4g/	.	8.gg\J	.	.	.	.	.	.	.	.	.	.	.	8GG/L	n	.	.	.	.	.
.	.	.	.	.	.	.	.	.	.	.	.	.	.	8AAn/	3	.	.	.	.	.
.	.	16ff\LL	.	.	.	.	.	.	.	.	.	.	.	.	.	.	.	.	.	.
4g/	.	16ee-\	.	.	.	.	.	.	.	.	.	.	.	8BBn/J	3	.	.	.	.	.
.	.	16dd\JJ	.	.	.	.	.	.	.	.	.	.	.	.	.	.	.	.	.	.
.	.	16ee-\LL	.	.	.	.	.	.	.	.	.	.	.	8C\L	3	.	.	.	.	.
.	.	16dd\	.	.	.	.	.	.	.	.	.	.	.	.	.	.	.	.	.	.
8g/	.	16cc\	.	.	.	.	.	.	.	.	.	.	.	8D\	6/	.	.	.	.	.
.	.	16bn\JJ	.	.	.	.	.	.	.	.	.	.	.	.	.	.	.	.	.	.
8g/	.	16cc\LL	.	.	.	.	.	.	.	.	.	.	.	8E-\J	6	.	.	.	.	.
.	.	16dd\	.	.	.	.	.	.	.	.	.	.	.	.	.	.	.	.	.	.
8r	.	16ee-\	.	.	.	.	.	.	.	.	.	.	.	8r	.	.	.	.	.	.
!	!	!	!	!	!	!	!	!	!	!	!	!	!	!LO:LB:g=original	!	!	!	!	!	!
.	.	32ff\L	.	.	.	.	.	.	.	.	.	.	.	.	.	.	.	.	.	.
.	.	32gg\JJJ	.	.	.	.	.	.	.	.	.	.	.	.	.	.	.	.	.	.
=41	=41	=41	=41	=41	=41	=41	=41	=41	=41	=41	=41	=41	=41	=41	=41	=41	=41	=41	=41	=41
.	.	8qqff/	.	.	.	.	.	.	.	.	.	.	.	.	.	.	.	.	.	.
8r	.	8ff\L	.	2r	.	.	2r	.	2r	.	2r	.	.	8r	.	.	2r	2r	1r	2r
4f/	.	8.ff\J	.	.	.	.	.	.	.	.	.	.	.	8FF/L	n	.	.	.	.	.
.	.	.	.	.	.	.	.	.	.	.	.	.	.	8GG/	3	.	.	.	.	.
.	.	16ee-\LL	.	.	.	.	.	.	.	.	.	.	.	.	.	.	.	.	.	.
4f/	.	16dd\	.	.	.	.	.	.	.	.	.	.	.	8AAn/J	3	.	.	.	.	.
.	.	16cc\JJ	.	.	.	.	.	.	.	.	.	.	.	.	.	.	.	.	.	.
!	!	!	!	!	!	!	!	!	!	!	!	!	!	!LO:TX:t=P:problem:mixed beam	!	!	!	!	!	!
.	.	16dd\LL	.	4r	.	.	4r	.	4r	.	4r	.	.	8BB-/L	3	.	4r	4r	.	4r
.	.	16cc\	.	.	.	.	.	.	.	.	.	.	.	.	.	.	.	.	.	.
8f/	.	16b-\	.	.	.	.	.	.	.	.	.	.	.	8C/	6/	.	.	.	.	.
.	.	16an\JJ	.	.	.	.	.	.	.	.	.	.	.	.	.	.	.	.	.	.
8f/L	.	16b-|\LL	.	8r	.	.	8r	.	8r	.	8r	.	.	8D/	6	.	8r	8r	.	8r
.	.	16bb-|\	.	.	.	.	.	.	.	.	.	.	.	.	.	.	.	.	.	.
8b-/J	.	(16dd\	.	8A-X\	lu-	.	8B-\	lu-	8a-\	lu-	8dd\	lu-	.	8A-X\J	4 2	.	8B-/	8f\	.	8gg\
!	!	!	!	!	!	!	!	!	!	!	!LO:LB:g=original	!	!	!	!	!	!	!	!	!
.	.	16ff\JJ)	.	.	.	.	.	.	.	.	.	.	.	.	.	.	.	.	.	.
!	!	!LO:LB:g=original	!	!	!	!	!	!	!	!	!	!	!	!	!	!	!	!	!	!
=42	=42	=42	=42	=42	=42	=42	=42	=42	=42	=42	=42	=42	=42	=42	=42	=42	=42	=42	=42	=42
*tremolo	*	*	*	*	*	*	*	*	*	*	*	*	*	*	*	*	*	*	*	*
8b-\L	.	(16ff\LL	.	8G\	-ce-	.	8B-\	-ce-	8b-\	-ce-	8ee-\	-ce-	.	8G\L	6	.	8e-\L	8g-\L	2r	8aa-\L
.	.	16ee-\J)	.	.	.	.	.	.	.	.	.	.	.	.	.	.	.	.	.	.
8b-\	.	8ee-|\J	.	8G\	-at	.	8B-\	-at	8b-\	-at	8ee-\	-at	.	8G\	.	.	8e-\J	8g-\J	.	8aa-\J
8b-\	.	16r	.	8r	.	.	8r	.	8r	.	8r	.	.	8E-\	.	.	8r	8r	.	8r
.	.	16bb-|\LL	.	.	.	.	.	.	.	.	.	.	.	.	.	.	.	.	.	.
8b-\J	.	(16ee-\	.	8E-\	lu-	.	8B-\	lu-	8b-\	lu-	8ee-\	lu-	.	8E-\J	.	.	8e-\	8g-\	.	8aa-\
.	.	16gg\JJ)	.	.	.	.	.	.	.	.	.	.	.	.	.	.	.	.	.	.
8b-\L	.	16gg\LL	.	8D\	-ce-	.	8d\	-ce-	8dd\	-ce-	8ff\	-ce-	.	8D\L	6	.	8B-/L	8f\L	4r	8bb-\L
.	.	16ff\J	.	.	.	.	.	.	.	.	.	.	.	.	.	.	.	.	.	.
8b-\	.	8ff\J	.	8D\	-at	.	8d\	-at	8dd\	-at	8ff\	-at	.	8D\	.	.	8B-/J	8f\J	.	8bb-\J
8b-\	.	16r	.	8r	.	.	8r	.	8r	.	8r	.	.	8D\	.	.	8r	8r	8r	8r
.	.	16bb-|\LL	.	.	.	.	.	.	.	.	.	.	.	.	.	.	.	.	.	.
8b-\J	.	(16ff\	.	8D\	lu-	.	8B-\	lu-	8cc-X\	lu-	8ff\	lu-	.	8D\J	.	.	8B-/	8f\	8b-/	8bb-\
!	!	!	!	!	!	!	!	!	!LO:LB:g=original	!	!	!	!	!	!	!	!	!	!	!
.	.	16aa-\JJ)	.	.	.	.	.	.	.	.	.	.	.	.	.	.	.	.	.	.
=43	=43	=43	=43	=43	=43	=43	=43	=43	=43	=43	=43	=43	=43	=43	=43	=43	=43	=43	=43	=43
8b-\L	.	(16aa-\LL	.	8E-\	-ce-	.	8B-\	-ce-	8b-\	-ce-	8ee-\	-ce-	.	8E-\L	.	.	8e-\L	8g-\L	8cc/L	8aa-\L
.	.	16gg\J)	.	.	.	.	.	.	.	.	.	.	.	.	.	.	.	.	.	.
8b-\	.	8gg|\J	.	8E-\	-at	.	8B-\	-at	8b-\	-at	8ee-\	-at	.	8E-\	.	.	8e-\J	8g-\J	8cc/J	8aa-\J
8b-\	.	16r	.	8r	.	.	8r	.	8r	.	8r	.	.	8G\	.	.	4r	4r	8r	8r
.	.	16bb-|\LL	.	.	.	.	.	.	.	.	.	.	.	.	.	.	.	.	.	.
8b-\J	.	(16b-\	.	8G\	lu-	.	8B-\	lu-	8g\	lu-	8dd-X\	lu-	.	8G\J	.	.	.	.	8cc/	(8gg-X\
.	.	16dd-X\JJ)	.	.	.	.	.	.	.	.	.	.	.	.	.	.	.	.	.	.
*Xtremolo	*	*	*	*	*	*	*	*	*	*	*	*	*	*	*	*	*	*	*	*
!LO:TX:t=P:problem:mixed beam	!	!	!	!	!	!	!	!	!	!	!	!	!	!	!	!	!	!	!	!
8f/L	.	16cc|\LL	.	2A-\	.	.	2c\	.	8g\L	-ce-	2b-\	-ce-	.	8A-\L	6	.	2r	2r	2dd\	2ff\
!	!	!	!	!	!	!	!	!	!	!	!	!	!	!	!	!	!	!	!	!LO:LB:g=original
.	.	16ccc|\	.	.	.	.	.	.	.	.	.	.	.	.	.	.	.	.	.	.
8f/	.	(16gg\	.	.	.	.	.	.	8a-\J	.	.	.	.	8A-\	.	.	.	.	.	.
.	.	16aa-\JJ)	.	.	.	.	.	.	.	.	.	.	.	.	.	.	.	.	.	.
8cc\	.	(16een\LL	.	.	.	.	.	.	4a-\	-at	.	.	.	8A-\	.	.	.	.	.	.
.	.	16ff\	.	.	.	.	.	.	.	.	.	.	.	.	.	.	.	.	.	.
8cc\J	.	16gg\	.	.	.	.	.	.	.	.	.	.	.	8A-\J	.	.	.	.	.	.
.	.	16ff\JJ)	.	.	.	.	.	.	.	.	.	.	.	.	.	.	.	.	.	.
=44	=44	=44	=44	=44	=44	=44	=44	=44	=44	=44	=44	=44	=44	=44	=44	=44	=44	=44	=44	=44
!LO:TX:t=P:problem:mixed beam	!	!	!	!	!	!	!	!	!	!	!	!	!	!	!	!	!	!	!	!
8e-/L	.	16b-|\LL	.	4G\	ce-	.	4e-\	-ce-	2b-\	lu-	2b-\	-at	.	8G\L	6	.	2r	2r	2a-/	2ee-\)
.	.	16bb-^^\	.	.	.	.	.	.	.	.	.	.	.	.	.	.	.	.	.	.
8e-/	.	(16ff\	.	.	.	.	.	.	.	.	.	.	.	8G\	.	.	.	.	.	.
.	.	16gg\JJ)	.	.	.	.	.	.	.	.	.	.	.	.	.	.	.	.	.	.
8b-\	.	(16dd\LL	.	4G\	-at	.	4e-\	-at	.	.	.	.	.	8G\	.	.	.	.	.	.
.	.	16ee-\	.	.	.	.	.	.	.	.	.	.	.	.	.	.	.	.	.	.
8b-\J	.	16ff\	.	.	.	.	.	.	.	.	.	.	.	8G\J	.	.	.	.	.	.
.	.	16ee-\JJ)	.	.	.	.	.	.	.	.	.	.	.	.	.	.	.	.	.	.
!	!	!	!	!	!	!	!	!	!	!	!	!	!	!	!	!	!LO:TX:t=P:problem:druga połowa taktu niewidoczna	!	!	!
8b-\L	.	16b-|\LL	.	4D\	lu-	.	4f\	lu-	4cc-X\	.	2b-\	lu-	.	8D\L	6 5	.	2r	2B-/	4bb-\	4ddd\
!LO:LB:g=original	!	!	!	!	!	!	!	!	!	!	!	!	!	!	!	!LO:LB:g=original	!	!	!	!
.	.	16b-|\	.	.	.	.	.	.	.	.	.	.	.	.	.	.	.	.	.	.
8b-\	.	(16aa-\	.	.	.	.	.	.	.	.	.	.	.	8D\	.	.	.	.	.	.
.	.	16ff\JJ)	.	.	.	.	.	.	.	.	.	.	.	.	.	.	.	.	.	.
8b-\	.	16b-|\LL	.	4E-\	.	.	4e-\	.	4b-\	.	.	.	.	8E-\	.	.	.	.	4aa-\	4ccc\
.	.	16b-|\	.	.	.	.	.	.	.	.	.	.	.	.	.	.	.	.	.	.
8b-\J	.	(16gg\	.	.	.	.	.	.	.	.	.	.	.	8E-\J	.	.	.	.	.	.
.	.	16ee-\JJ)	.	.	.	.	.	.	.	.	.	.	.	.	.	.	.	.	.	.
=45	=45	=45	=45	=45	=45	=45	=45	=45	=45	=45	=45	=45	=45	=45	=45	=45	=45	=45	=45	=45
8b-\L	.	16b-|\LL	.	4A-\	.	.	4d\	.	4a-\	.	2b-\	-ce-	.	8A-\L	4 2	.	[1BB-	1B-	4gg\	4bb-\
.	.	16b-|\	.	.	.	.	.	.	.	.	.	.	.	.	.	.	.	.	.	.
8b-\	.	(16ff\	.	.	.	.	.	.	.	.	.	.	.	8A-\	6	.	.	.	.	.
.	.	16dd\JJ)	.	.	.	.	.	.	.	.	.	.	.	.	.	.	.	.	.	.
8b-\	.	16b-|\LL	.	4G\	.	.	4e-\	.	4b-\	.	.	.	.	8G\	.	.	.	.	4aa-\	4ccc\
.	.	16b-|\	.	.	.	.	.	.	.	.	.	.	.	.	.	.	.	.	.	.
8b-\J	.	(16ee-\	.	.	.	.	.	.	.	.	.	.	.	8G\J	.	.	.	.	.	.
.	.	16b-\JJ)	.	.	.	.	.	.	.	.	.	.	.	.	.	.	.	.	.	.
*tremolo	*	*	*	*	*	*	*	*	*	*	*	*	*	*	*	*	*	*	*	*
8b-\L	.	16r	.	4D\	-ce-	.	4f\	-ce-	4cc\	-ce-	2b-\	-at	.	8D\L	6 5	.	.	.	4bb-\	4ddd\
.	.	16b-|\LL	.	.	.	.	.	.	.	.	.	.	.	.	.	.	.	.	.	.
8b-\	.	(16aa-\	.	.	.	.	.	.	.	.	.	.	.	8D\	.	.	.	.	.	.
.	.	16ff\JJ)	.	.	.	.	.	.	.	.	.	.	.	.	.	.	.	.	.	.
8b-\	.	16r	.	4E-\	-at	.	4e-\	-at	4b-\	-at	.	.	.	8E-\	.	.	.	.	4aa-\	4ccc\
.	.	16b-|\LL	.	.	.	.	.	.	.	.	.	.	.	.	.	.	.	.	.	.
8b-\J	.	(16gg\	.	.	.	.	.	.	.	.	.	.	.	8E-\J	.	.	.	.	.	.
.	.	16ee-\JJ)	.	.	.	.	.	.	.	.	.	.	.	.	.	.	.	.	.	.
!	!	!LO:LB:g=original	!	!	!	!	!	!	!	!	!	!	!	!	!	!	!	!	!	!
=46	=46	=46	=46	=46	=46	=46	=46	=46	=46	=46	=46	=46	=46	=46	=46	=46	=46	=46	=46	=46
8b-\L	.	16r	.	4A-\	lu-	.	4d\	lu-	4a-\	lu-	2b-\	lu-	.	8A-\L	4 2	.	2BB-/]	2B-/	4gg\	4bb-\
.	.	16b-|\LL	.	.	.	.	.	.	.	.	.	.	.	.	.	.	.	.	.	.
8b-\	.	(16ff\	.	.	.	.	.	.	.	.	.	.	.	8A-\	.	.	.	.	.	.
.	.	16dd\JJ)	.	.	.	.	.	.	.	.	.	.	.	.	.	.	.	.	.	.
8b-\	.	8b-\L	.	4G\	.	.	4e-\	.	4b-\	.	.	.	.	8G\	6	.	.	.	4aa-\	4ccc\
8b-\J	.	8b-\J	.	.	.	.	.	.	.	.	.	.	.	8G\J	.	.	.	.	.	.
*Xtremolo	*	*	*	*	*	*	*	*	*	*	*	*	*	*	*	*	*	*	*	*
8.e-/L	.	16cc\LL	.	8A-\	-ce-	.	8f\	-ce-	8g\	-ce-	8cc\	-ce-	.	4A-\	6 5	.	4r	4r	4r	4r
.	.	16ccM\	.	.	.	.	.	.	.	.	.	.	.	.	.	.	.	.	.	.
.	.	16aa-\	.	8A-\	-at	.	8e-\	-at	8cc\	-at	8ff\	-at	.	.	.	.	.	.	.	.
16a-/Jk	.	16ff\JJ	.	.	.	.	.	.	.	.	.	.	.	.	.	.	.	.	.	.
!	!	!	!	!LO:TX:t=P:problem:mixed beam	!	!	!	!	!	!	!	!	!	!LO:TX:t=P:problem:mixed beam	!	!	!	!	!	!LO:TX:a:i:t=T&colon;
.	.	8qqff/	.	.	.	.	.	.	.	.	.	.	.	.	.	.	.	.	.	.
8g/L	.	8ee-\L	.	8B-\L	e-	.	4B-\	e-	8b-\L	e-	8ee-\L	e-	.	8B-\L	6 4	.	8e-\L	8g-\L	8cc/L	8aa-\L
!	!	!	!	!	!	!	!LO:LB:g=original	!	!	!	!	!	!	!	!	!	!	!	!	!
.	.	8qqee-/	.	.	.	.	.	.	.	.	.	.	.	.	.	.	.	.	.	.
8f/J	.	8dd\J	.	8BB-/J	.	.	.	.	8a-\J	.	8dd\J	.	.	8BB-/J	5 3	.	8B-\J	8f\J	8b-/J	8gg\J
!	!	!	!	!LO:LB:g=original	!	!	!	!	!	!	!	!	!	!	!	!	!	!	!LO:LB:g=original	!
=47	=47	=47	=47	=47	=47	=47	=47	=47	=47	=47	=47	=47	=47	=47	=47	=47	=47	=47	=47	=47
!LO:TX:t=P:problem:mixed beam	!	!	!	!	!	!	!	!	!	!	!	!	!	!	!	!	!	!	!	!
!LO:TX:a:i:t=T&colon;	!	!	!	!	!	!	!	!	!	!	!	!	!	!	!	!	!	!	!	!
!	!	!	!	!	!	!	!	!	!	!	!	!	!	!LO:TX:a:i:t=T&colon;	!	!	!	!	!	!
!	!	!	!	!	!	!	!	!	!	!	!	!	!	!	!	!LO:DY:b:t=forte	!	!	!	!
16g/LL	.	16ee-\LL	.	8E-\	-is	.	8B-\	-is	8b-\	-is	8ee-\	-is	.	8E-|\L	.	f	16G\LL	16e-\LL	16cc\LL	16aa-\LL
16ee-\J	.	16gg\J	.	.	.	.	.	.	.	.	.	.	.	.	.	.	16e-\J	16g-\J	16aa-\J	16ccc\J
8ee-\J	.	8gg\J	.	8r	.	.	8r	.	8r	.	8r	.	.	8E-|\	.	.	8e-\J	8g-\J	8aa-\J	8ccc\J
16ee-\LL	.	16gg\LL	.	16E-\LL	do-	.	16G/LL	do-	16g\LL	do-	16g/LL	do-	.	8E-|\	.	.	16e-\LL	16g-\LL	16aa-\LL	16aa-\LL
16dd\	.	16ff\	.	16D\JJ	.	.	16F/JJ	.	16f\JJ	.	16f/JJ	.	.	.	.	.	16B-\	16f\	16gg\	16gg\
16ee-\	.	16gg\	.	16E-\LL	na	.	16G/LL	na	16g\LL	na	16g/LL	na	.	8E-|\J	.	.	16e-\	16g-\	16aa-\	16aa-\
16ff\JJ	.	16aa-\JJ	.	16F\JJ	.	.	16A-/JJ	.	16a-\JJ	.	16a-/JJ	.	.	.	.	.	16f\JJ	16a-\JJ	16bb-\JJ	16bb-\JJ
!	!	!	!	!	!	!	!	!	!	!	!LO:LB:g=original	!	!	!	!	!	!	!LO:LB:g=original	!	!
8.gg\L	.	8.bb-\L	.	8.G\L	e-	.	8.B-\L	e-	8.b-\L	e-	8.b-\	e-	.	8E-|\L	.	.	8.g\L	8.b-\L	8.ccc\L	8.eee-\L
.	.	.	.	.	.	.	.	.	.	.	.	.	.	8E-|\	.	.	.	.	.	.
32aa-\LL	.	32aa-\LL	.	32A-\LL	.	.	32c\LL	.	32cc\LL	.	32cc\LLL	.	.	.	.	.	32a-\LL	32cc-\LL	32ddd\LL	32fff\LL
32gg\JJJ	.	32bb-\JJJ	.	32G\JJJ	.	.	32B-\JJJ	.	32b-\JJJ	.	32b-\JJJ	.	.	.	.	.	32g\JJJ	32b-\JJJ	32ccc\JJJ	32eee-\JJJ
8ff\L	.	8aa-\L	.	8F\L	.	.	8A-/L	.	8a-\L	.	8a-\L	.	.	8E-|\	.	.	8f\L	8a-\L	8bb-\L	8ddd\L
8ee-\J	.	8gg\J	.	8E-\J	.	.	8G/J	.	8g\J	.	8g\J	.	.	8E-|\J	.	.	8e-\J	8g-\J	8aa-\J	8ccc\J
!	!	!	!	!	!	!	!	!	!LO:LB:g=original	!	!	!	!	!	!	!	!	!	!	!
=48	=48	=48	=48	=48	=48	=48	=48	=48	=48	=48	=48	=48	=48	=48	=48	=48	=48	=48	=48	=48
8qqee-/	.	8qqgg/	.	.	.	.	.	.	.	.	.	.	.	.	.	.	.	8qqg-/	8qqaa-/	8qqccc/
8dd\L	.	8ff\L	.	8D\	-is	.	8F/	-is	8f\	-is	8f/	-is	.	8BB-|>/L	.	.	8B-/L	8f\L	8gg\L	8bb-\L
8dd\J	.	8ff\J	.	8r	.	.	8r	.	8r	.	8r	.	.	8BB-|>/	.	.	8B-/J	8f\J	8gg\J	8bb-\J
16dd\LL	.	16ff\LL	.	16D\LL	do-	.	16F/LL	do-	16f\LL	do-	16f/LL	do-	.	8BB-|>/	.	.	16B-/LL	16f\LL	16gg\LL	16bb-\LL
16cc\	.	16ee-\	.	16C\JJ	.	.	16E-/JJ	.	16e-\JJ	.	16e-/JJ	.	.	.	.	.	16G/	16e-\	16ff\	16aa-\
16dd\	.	16ff\	.	16D\LL	-na	.	16F/LL	-na	16f\LL	-na	16f/LL	-na	.	8BB-|>/J	.	.	16B-/	16f\	16gg\	16bb-\
16ee-\JJ	.	16gg\JJ	.	16E-\JJ	.	.	16G/JJ	.	16g\JJ	.	16g/JJ	.	.	.	.	.	16e-/JJ	16g-\JJ	16aa-\JJ	16ccc\JJ
8.ff\L	.	8.aa-\L	.	8.F\L	e-	.	8.A-\L	e-	8.a-\L	e-	8.a-\L	e-	.	8BB-|>/L	.	.	8.f\L	8.a-\L	8.bb-\L	8.ddd\L
.	.	.	.	.	.	.	.	.	.	.	.	.	.	8BB-|>/	.	.	.	.	.	.
32gg\LL	.	32bb-\LL	.	32G\LL	.	.	32B-\LL	.	32b-\LL	.	32b-\LL	.	.	.	.	.	32g\LL	32b-\LL	32ccc\LL	32eee-\LL
32ff\JJJ	.	32aa-\JJJ	.	32F\JJJ	.	.	32A-\JJJ	.	32a-\JJJ	.	32a-\JJJ	.	.	.	.	.	32f\JJJ	32a-\JJJ	32bb-\JJJ	32ddd\JJJ
!	!	!	!	!	!	!	!	!	!	!	!	!	!	!	!	!	!LO:TX:t=P:problem:mixed beam	!	!	!
8ee-\L	.	8gg\L	.	8E-\	.	.	8G/	.	8g\L	-is	8g\	.	.	8BB-|>/	.	.	8e-\L	8g-\L	8aa-\L	8ccc\L
8dd\J	.	8ff\J	.	8D\	-is	.	8F/	-is	8f\J	.	8f\	-is	.	8BB-|>/J	.	.	8B-/J	8f\J	8gg\J	8bb-\J
=49	=49	=49	=49	=49	=49	=49	=49	=49	=49	=49	=49	=49	=49	=49	=49	=49	=49	=49	=49	=49
!	!	!	!	!	!	!	!	!	!	!	!	!	!	!LO:TX:t=P:problem:mixed beam	!	!	!	!	!	!
16ee-\LL	.	16gg\LL	.	16E-\LL	do-	.	16G/LL	e-	16g\LL	do-	16g\LL	do-	.	8E-\L	.	.	16e-\LL	16g-\LL	16aa-\LL	16ccc\LL
16dd\J	.	16ff\J	.	16D\JJ	.	.	16F/JJ	.	16f\JJ	.	16f\JJ	.	.	.	.	.	16B-\J	16f\J	16gg\J	16bb-\J
8ee-\J	.	8gg\J	.	8E-\	-na	.	8G/	-is-	8g\	-na	8g\	-na	.	8E-\	.	.	8e-\J	8g-\J	8aa-\J	8ccc\J
16r	.	16r	.	16r	.	.	16r	.	16r	.	16r	.	.	8BB-/	.	.	16r	16r	16r	16r
16dd\LL	.	16ff\LL	.	16D\LL	do-	.	16F/LL	-do-	16f\LL	do-	16f/LL	do-	.	.	.	.	16B-\LL	16f\LL	16gg\LL	16bb-\LL
16ee-\	.	16gg\	.	16E-\JJ	.	.	16G/JJ	.	16g\JJ	.	16g/JJ	.	.	8BB-/J	.	.	16e-\	16g-\	16aa-\	16ccc\
16ff\JJ	.	16aa-\JJ	.	16F\	-na	.	16A-/	-na	16a-\	-na	16a-/	-na	.	.	.	.	16f\JJ	16a-\JJ	16bb-\JJ	16ddd\JJ
!	!	!	!	!	!	!	!	!	!	!	!	!	!	!LO:TX:t=P:problem:mixed beam	!	!	!	!	!	!
16ee-\LL	.	16gg\LL	.	16E-\LL	e-	.	16G/LL	e-	16g\LL	e-	16g/LL	e-	.	8E-\L	.	.	16e-\LL	16g-\LL	16aa-\LL	16ccc\LL
16dd\J	.	16ff\J	.	16D\JJ	.	.	16F/JJ	.	16f\J	.	16f/JJ	.	.	.	.	.	16B-\J	16f\J	16gg\J	16bb-\J
8ee-\J	.	8gg\J	.	8E-\	-is	.	8G/	-is	8g\J	-is	8g/	-is	.	8E-\	.	.	8e-\J	8g-\J	8bb-\J	8ccc\J
16r	.	16r	.	16r	.	.	16r	.	16r	.	16r	.	.	8BB-/	.	.	16r	16r	16r	16r
16dd\LL	.	16ff\LL	.	16D\LL	do-	.	16F/LL	do-	16f\LL	do-	16f/LL	do-	.	.	.	.	16B-\LL	16f\LL	16gg\LL	16bb-\LL
16ee-\	.	16gg\	.	16E-\JJ	.	.	16G/JJ	.	16g\JJ	.	16g/JJ	.	.	8BB-/J	.	.	16e-\	16g-\	16aa-\	16ccc\
16ff\JJ	.	16aa-\JJ	.	16F\	-na	.	16A-/	-na	16a-\	-na	16a-/	-na	.	.	.	.	16f\JJ	16a-\JJ	16bb-\JJ	16ddd\JJ
!LO:LB:g=original	!	!LO:LB:g=original	!	!	!	!	!	!	!	!	!	!	!	!	!	!	!	!	!	!LO:LB:g=original
=50	=50	=50	=50	=50	=50	=50	=50	=50	=50	=50	=50	=50	=50	=50	=50	=50	=50	=50	=50	=50
16ee-\LL	.	16gg'\LL	.	16E-\LL	e-	.	16G/LL	e-	16g\LL	e-	16g\LL	e-	.	4E-\	.	.	16e-\LL	16g-\LL	16aa-\LL	16ccc\LL
16gg\	.	16bb-'\	.	16G\JJ	.	.	16B-/JJ	.	16b-\J	.	16b-\JJ	.	.	.	.	.	16g\	16b-\	16ccc\	16eee-\
16gg\	.	16bb-'\	.	8G\	-is	.	8B-/	-is	8b-\J	-is	8b-\	-is	.	.	.	.	16g\	16b-\	16ccc\	16eee-\
16gg\JJ	.	16bb-'\JJ	.	.	.	.	.	.	.	.	.	.	.	.	.	.	16g\JJ	16b-\JJ	16ccc\JJ	16eee-\JJ
16gg\LL	.	(16bb-\LL	.	16G\LL	do-	.	16B-/LL	do-	16b-\LL	do-	16b-\LL	do-	.	8D\L	.	.	16g\LL	16b-\LL	16ccc\LL	16eee-\LL
16ff\	.	16aa-\)	.	16F\JJ	.	.	16A-/JJ	.	16a-\JJ	.	16a-\JJ	.	.	.	.	.	16f\JJ	16a-\	16bb-\	16ddd\
!	!	!	!	!	!	!	!	!	!	!	!	!	!	!	!	!	!LO:TX:t=P:problem:reszta taktu niewidoczna	!	!	!
16ff\	.	(16aa-\	.	16F\LL	-mi-	.	16A-/LL	-mi-	16a-\LL	-mi-	16a-\LL	-mi-	.	8E-\J	.	.	8r	16a-\	16bb-\	16ddd\
16ee-\JJ	.	16gg\JJ)	.	16E-\JJ	.	.	16G/JJ	.	16g\JJ	.	16g\JJ	.	.	.	.	.	.	16g-\JJ	16aa-\JJ	16ccc\JJ
!	!	!	!	!LO:LB:g=original	!	!	!	!	!	!	!	!	!	!	!	!	!	!	!	!
4ee-\	.	4gg\	.	4E-\	.	.	4G/	-ne	4g\	-ne	(4g\	-ne	.	16E-\LL	.	.	2r	4g-\	4aa-\	4ccc\
!	!	!	!	!	!	!	!	!	!	!	!	!	!	!	!	!	!LO:LB:g=original	!	!	!
.	.	.	.	.	.	.	.	.	.	.	.	.	.	16F\	.	.	.	.	.	.
.	.	.	.	.	.	.	.	.	.	.	.	.	.	16G\	.	.	.	.	.	.
.	.	.	.	.	.	.	.	.	.	.	.	.	.	16A-\JJ	.	.	.	.	.	.
!	!	!	!	!	!	!	!LO:TX:t=P:problem:dźwięk niewidoczny, rekonstrukcja	!	!	!	!	!	!	!LO:TX:t=P:problem:mixed beam	!	!	!	!	!	!
4dd\	.	4ff\	.	4C\	-ne	.	4F/	.	4f\	.	4f\)	.	.	8B-\L	.	.	.	4f\	4gg\	4bb-\
!	!	!	!	!	!	!	!LO:LB:g=original	!	!	!	!LO:LB:g=original	!	!	!	!	!	!	!	!	!
.	.	.	.	.	.	.	.	.	.	.	.	.	.	8BB-/J	.	.	.	.	.	.
=51	=51	=51	=51	=51	=51	=51	=51	=51	=51	=51	=51	=51	=51	=51	=51	=51	=51	=51	=51	=51
!	!	!	!	!	!	!	!	!	!	!	!	!	!	!	!	!	!LO:TX:t=P:problem:mixed beam	!	!LO:TX:t=P:problem:mixed beam	!
8ee-\L	.	8gg\L	.	4r	.	.	4r	.	4r	.	4r	.	.	8E-\L	.	.	16G/LL	16e-\LL	16cc/LL	16aa-\LL
.	.	.	.	.	.	.	.	.	.	.	.	.	.	.	.	.	16e-\J	16g-\J	16aa-\J	16ccc\J
8ee-\J	.	8gg\J	.	.	.	.	.	.	.	.	.	.	.	8E-\	.	.	8e-\J	8g-\J	8aa-\J	8ccc\J
16ee-\LL	.	16gg\LL	.	16E-\LL	do-	.	16G/LL	do-	16g\LL	do-	16g\LL	do-	.	8E-\	.	.	16e-\LL	16g-\LL	16aa-\LL	16ccc\LL
16dd\	.	16ff\	.	16D\JJ	.	.	16F/JJ	.	16f\JJ	.	16f\JJ	.	.	.	.	.	16B-\	16f\	16gg\	16bb-\
16ee-\	.	16gg\	.	16E-\LL	-na	.	16G/LL	-na	16g\LL	-na	16g\LL	-na	.	8E-\J	.	.	16e-\	16g-\	16aa-\	16ccc\
16ff\JJ	.	16aa-\JJ	.	16F\JJ	.	.	16A-/JJ	.	16a-\JJ	.	16a-\JJ	.	.	.	.	.	16f\JJ	16a-\JJ	16bb-\JJ	16ddd\JJ
!	!	!	!	!	!	!	!	!	!	!	!	!	!	!	!	!	!	!	!LO:LB:g=original	!
8.gg\L	.	8.bb-\L	.	8.G\L	e-	.	8.A-\L	e-	8.a-\L	e-	8.a-\L	e-	.	8E-\L	.	.	8.g\L	8.b-\L	8.ccc\L	8.eee-\L
.	.	.	.	.	.	.	.	.	.	.	.	.	.	8E-\	.	.	.	.	.	.
32aa-\LL	.	32ccc\LL	.	32A-\LL	.	.	32B-\LL	.	32b-\LL	.	32b-\LL	.	.	.	.	.	32a-\LL	32cc-\LL	32ddd\LL	32fff\LL
32gg\JJJ	.	32bb-\JJJ	.	32G\JJJ	.	.	32A-\JJJ	.	32a-\JJJ	.	32a-\JJJ	.	.	.	.	.	32g\JJJ	32b-\JJJ	32ccc\JJJ	32eee-\JJJ
8ff\L	.	8aa-\L	.	8F\L	.	.	8G\L	.	8g\L	.	8g\L	.	.	8E-\	.	.	8f\L	8a-\L	8bb-\L	8ddd\L
8ee-\J	.	8gg\J	.	8E-\J	.	.	8F\J	.	8f\J	.	8f\J	.	.	8E-\J	.	.	8e-\J	8g-\J	8aa-\J	8ccc\J
!	!	!	!	!	!	!	!	!	!LO:LB:g=original	!	!	!	!	!	!	!	!	!LO:LB:g=original	!	!
=52	=52	=52	=52	=52	=52	=52	=52	=52	=52	=52	=52	=52	=52	=52	=52	=52	=52	=52	=52	=52
8qqee-/	.	8qqgg/	.	.	.	.	.	.	.	.	.	.	.	.	.	.	.	8qqg-/	8qqaa-/	8qqccc/
8dd\L	.	8ff\L	.	8D\	-is	.	8F/	-is	8f\	-is	8f/	-is	.	8BB-/L	.	.	8B-/L	8f\L	8gg\L	8bb-\L
8dd\J	.	8ff\J	.	8r	.	.	8r	.	8r	.	8r	.	.	8BB-/	.	.	8B-/J	8f\J	8gg\J	8bb-\J
16dd\LL	.	16ff\LL	.	16D\LL	do-	.	16F/LL	do-	16f\LL	do-	16f/LL	do-	.	8BB-/	.	.	16B-/LL	16f\LL	16gg\LL	16bb-\LL
16cc\	.	16ee-\	.	16C\JJ	.	.	16E-/JJ	.	16e-\JJ	.	16e-/JJ	.	.	.	.	.	16G/	16e-\	16ff\	16aa-\
16dd\	.	16ff\	.	16D\LL	-na	.	16F/LL	-na	16f\LL	-na	16f/LL	-na	.	8BB-/J	.	.	16B-/	16f\	16gg\	16bb-\
16ee-\JJ	.	16gg\JJ	.	16E-\JJ	.	.	16G/JJ	.	16g\JJ	.	16g/JJ	.	.	.	.	.	16e-/JJ	16g-\JJ	16aa-\JJ	16ccc\JJ
8.ff\L	.	8.aa-\L	.	8.F\L	e-	.	8.A-\L	e-	8.a-\L	e-	8.a-\L	e-	.	8BB-/L	.	.	8.f\L	8.a-\L	8.bb-\L	8.ddd\L
.	.	.	.	.	.	.	.	.	.	.	.	.	.	8BB-/	.	.	.	.	.	.
32gg\LL	.	32bb-\LL	.	32G\LL	.	.	32B-\LL	.	32b-\LL	.	32b-\LL	.	.	.	.	.	32g\LL	32b-\LL	32ccc\LL	32eee-\LL
32ff\JJJ	.	32aa-\JJJ	.	32F\JJJ	.	.	32A-\JJJ	.	32a-\JJJ	.	32a-\JJJ	.	.	.	.	.	32f\JJJ	32a-\JJJ	32bb-\JJJ	32ddd\JJJ
8ee-\L	.	8gg\L	.	8E-\	-is	.	8G/L	-is	8g\L	-is	8g/	.	.	8BB-/	.	.	8e-\L	8g-\L	8aa-\L	8ccc\L
8dd\J	.	8ff\J	.	8D\	.	.	8F/J	.	8f\J	.	8f/	-is	.	8BB-/J	.	.	8B-\J	8f\J	8gg\J	8bb-\J
=53	=53	=53	=53	=53	=53	=53	=53	=53	=53	=53	=53	=53	=53	=53	=53	=53	=53	=53	=53	=53
16ee-\LL	.	16gg\LL	.	16E-\LL	do-	.	16G/LL	e-	16g\LL	e-	16g/LL	do-	.	8E-\L	.	.	16e-\LL	16g-\LL	16aa-\LL	16ccc\LL
16dd\J	.	16ff\J	.	16D\JJ	.	.	16F/JJ	.	16f\JJ	.	16f/JJ	.	.	.	.	.	16B-\J	16f\J	16gg\J	16bb-\J
8ee-\J	.	8gg\J	.	8E-\	-na	.	8G/	-is	8g\	-is	8g/	-na	.	8E-\	.	.	8e-\J	8g-\J	8aa-\J	8ccc\J
16r	.	16r	.	16r	.	.	16r	.	16r	.	16r	.	.	8BB-\	.	.	16r	16r	16r	16r
16dd\LL	.	16ff\LL	.	16D\LL	do-	.	16F/LL	do-	16f\LL	do-	16f/LL	e-	.	.	.	.	16B-\LL	16f\LL	16gg\LL	16bb-\LL
16ee-\	.	16gg\	.	16E-\JJ	.	.	16G/JJ	.	16g\JJ	.	16g/JJ	.	.	8BB-\J	.	.	16e-\	16g-\	16aa-\	16ccc\
16ff\JJ	.	16aa-\JJ	.	16F\	-na	.	16A-/	-na	16a-\	-na	16a-/	-is	.	.	.	.	16f\JJ	16a-\JJ	16bb-\JJ	16ddd\JJ
16ee-\LL	.	16gg\LL	.	16E-\LL	e-	.	16G/LL	e-	16g\LL	e-	16g/LL	do-	.	8E-\L	.	.	16e-\LL	16g-\LL	16aa-\LL	16ccc\LL
16dd\J	.	16ff\J	.	16D\JJ	.	.	16F/JJ	.	16f\JJ	.	16f/JJ	.	.	.	.	.	16B-\J	16f\J	16gg\J	16bb-\J
8ff\J	.	8gg\J	.	8E-\	-is	.	8G/	-is	8g\	-is	8g/	-na	.	8E-\	.	.	8e-\J	8g-\J	8bb-\J	8ccc\J
16r	.	16r	.	16r	.	.	16r	.	16r	.	16r	.	.	8BB-\	.	.	16r	16r	16r	16r
16dd\LL	.	16ff\LL	.	16D\LL	do-	.	16F/LL	do-	16f\LL	do-	16f/LL	e-	.	.	.	.	16B-\LL	16f\LL	16gg\LL	16bb-\LL
16ee-\	.	16gg\	.	16E-\JJ	.	.	16G/JJ	.	16g\JJ	.	16g/JJ	.	.	8BB-\J	.	.	16e-\	16g-\	16aa-\	16ccc\
16ff\JJ	.	16aa-\JJ	.	16F\	-na	.	16A-/	-na	16a-\	-na	16a-/	-is	.	.	.	.	16f\JJ	16a-\JJ	16bb-\JJ	16ddd\JJ
!LO:LB:g=original	!	!	!	!	!	!	!	!	!	!	!	!	!	!	!	!	!	!	!	!
=54	=54	=54	=54	=54	=54	=54	=54	=54	=54	=54	=54	=54	=54	=54	=54	=54	=54	=54	=54	=54
!LO:TX:t=P:problem:klamra łukowa, kropka zamiast numeru	!	!LO:TX:t=P:problem:klamra łukowa, kropka zamiast numeru	!	!LO:TX:t=P:problem:klamra łukowa, kropka zamiast numeru	!	!	!LO:TX:t=P:problem:klamra łukowa, kropka zamiast numeru	!	!LO:TX:t=P:problem:klamra łukowa, kropka zamiast numeru	!	!LO:TX:t=P:problem:klamra łukowa, kropka zamiast numeru	!	!	!LO:TX:t=P:problem:mixed beam	!	!	!LO:TX:t=P:problem:klamra łukowa, kropka zamiast numeru	!LO:TX:t=P:problem:klamra łukowa, kropka zamiast numeru	!LO:TX:t=P:problem:klamra łukowa, kropka zamiast numeru	!LO:TX:t=P:problem:klamra łukowa, kropka zamiast numeru
24ee-\LL	.	24gg\LL	.	24E-\LL	e-	.	24G\LL	e-	24g\LL	e-	24g\LL	do-	.	8E-\L	3	.	24e-\LL	24g-\LL	24aa-\LL	24ccc\LL
24ff\	.	24aa-\	.	24F\	.	.	24A-\	.	24a-\	.	24a-\	.	.	.	.	.	24f\	24a-\	24bb-\	24ddd\
24gg\JJ	.	24bb-\JJ	.	24G\JJ	.	.	24B-\JJ	.	24b-\JJ	.	24b-\JJ	.	.	.	.	.	24g\JJ	24b-\JJ	24ccc\JJ	24eee-\JJ
!LO:TX:t=P:problem:klamra łukowa, kropka zamiast numeru	!	!LO:TX:t=P:problem:klamra łukowa, kropka zamiast numeru	!	!LO:TX:t=P:problem:klamra łukowa, kropka zamiast numeru	!	!	!LO:TX:t=P:problem:klamra łukowa, kropka zamiast numeru	!	!LO:TX:t=P:problem:klamra łukowa, kropka zamiast numeru	!	!LO:TX:t=P:problem:klamra łukowa, kropka zamiast numeru	!	!	!	!	!	!LO:TX:t=P:problem:klamra łukowa, kropka zamiast numeru	!LO:TX:t=P:problem:klamra łukowa, kropka zamiast numeru	!LO:TX:t=P:problem:klamra łukowa, kropka zamiast numeru	!LO:TX:t=P:problem:klamra łukowa, kropka zamiast numeru
24aa-\LL	.	24ccc\LL	.	24A-\LL	-is	.	24c\LL	-is	24cc\LL	-is	24cc\LL	.	.	8A-\	6 5	.	24a-\LL	24cc-\LL	24ddd\LL	24fff\LL
24gg\	.	24bb-\	.	24G\	.	.	24B-\	.	24b-\	.	24b-\	.	.	.	.	.	24g\	24b-\	24ccc\	24eee-\
24ff\JJ	.	24aa-\JJ	.	24F\JJ	.	.	24A-\JJ	.	24a-\JJ	.	24a-\JJ	.	.	.	.	.	24f\JJ	24a-\JJ	24bb-\JJ	24ddd\JJ
8ee-\L	.	8gg\L	.	8E-\	do-	.	8G/	do-	8g\	do-	8g\	-mi-	.	8B-\	6 4	.	8e-\L	8g-\L	8aa-\L	8ccc\L
8dd\J	.	8ff\J	.	8D\	-mi-	.	8G/	-mi-	8f\	-mi-	8f\	.	.	8BB-/J	5 3	.	8B-\J	8f\J	8gg\J	8bb-\J
!	!	!LO:LB:g=original	!	!LO:LB:g=original	!	!	!	!	!	!	!	!	!	!	!	!	!	!	!	!
*	*	*	*	*	*	*	*	*	*	*	*	*	*	*	*	*	*tremolo	*	*	*
*	*	*	*	*	*	*	*	*	*	*	*	*	*	*	*	*	*	*tremolo	*	*
!LO:TX:t=P:problem:mixed beam	!	!	!	!	!	!	!	!	!	!	!	!	!	!	!	!	!	!	!LO:TX:t=P:problem:mixed beam	!LO:TX:t=P:problem:mixed beam
8ee-\L	.	8ee-\L	.	4E-\	-ne.	.	4G/	-ne.	4e-\	-ne.	4e-/	-ne.	.	8E-\L	.	.	8G/L	8e-\L	8aa-\L	8ccc/L
8g/	.	8ee-\	.	.	.	.	.	.	.	.	.	.	.	8E-\	.	.	8G/	8e-\	8cc/	8bb-\
8g/	.	8ee-\	.	4r	.	.	4r	.	4r	.	4r	.	.	8E-\	.	.	8G/	8e-\	8cc/	8bb-\
8g/J	.	8ee-\J	.	.	.	.	.	.	.	.	.	.	.	8E-\J	.	.	8G/J	8e-\J	8cc/J	8bb-\J
*	*	*	*	*	*	*	*	*	*	*	*	*	*	*	*	*	*	*Xtremolo	*	*
*	*	*	*	*	*	*	*	*	*	*	*	*	*	*	*	*	*Xtremolo	*	*	*
*	*	*	*	*	*	*	*	*	*	*	*	*	*	*Xtremolo	*	*	*	*	*	*
=55	=55	=55	=55	=55	=55	=55	=55	=55	=55	=55	=55	=55	=55	=55	=55	=55	=55	=55	=55	=55
!	!	!	!	!	!	!	!	!	!	!	!	!	!	!	!	!	!	!	!	!LO:TX:t=P:problem:końcowa część utwóra jest rekonstrukcją gdyż nie widać nut w źródle
4g/	.	4ee-\	.	1r	.	.	1r	.	1r	.	1r	.	.	4E-\	.	.	4G/	4e-\	4cc/	4bb-\
4r	.	4r	.	.	.	.	.	.	.	.	.	.	.	4r	.	.	4r	4r	4r	4r
2r	.	2r	.	.	.	.	.	.	.	.	.	.	.	2r	.	.	2r	2r	2r	2r
==	==	==	==	==	==	==	==	==	==	==	==	==	==	==	==	==	==	==	==	==
*-	*-	*-	*-	*-	*-	*-	*-	*-	*-	*-	*-	*-	*-	*-	*-	*-	*-	*-	*-	*-
!!!RDF**kern: | = vertical stroke
!!!RDF**kern: > = above
!!!RDF**kern: < = below
!!!system-decoration: [(s1,s2)][(s3,s4)]s5[(s6,s7,s8,s9)][([(s10,s11)])]
!!!AIN: 1 alto 2 clars 1 cor 2 empty 1 organ 1 tenor 2 violn 1 vox
!!!ENC: Tomasz Grochalski
!!!END: 2020.09.05
!!!ENC: Julita Ruszuk
!!!END: 2022-01-26
